!!!!SEGMENT: s-uu--vok-mus-i-hs-21-10_forster-kaspar--benedicam-dominum.krn
!!!cenid: 16xx:1683
!!!COM: Förster, Kaspar
!!!COM-rismid: pe30006147
!!!CDT:
!!!CNT:
!!!OTL: Benedicam Dominum
!!!PDT: 1690
!!!AGN:
!!!SMS-siglum: S-Uu
!!!SMS-shelfmark: Vok. mus. i hs. 21:10
!!!SMS-shelfwork: W
!!!SMS-variant:
!!!SMS-altvar:
!!!NIFC-rismid: 190008705
!!!URL-scan: https://www2.musik.uu.se/duben/presentationSource1.php?Select_Dnr=807
!!!ONB-nifc: UWAGA: poszczególne partie dostępne po kliknięciu w „browse part”. Informacje nt stron tytułowych w opisie na stronie lub na RISM.
!!!key: F
**kern	**fba	**kern	**kern	**kern	**kern	**text	**kern	**text	**kern	**text
*group3	*	*group3	*group2	*group2	*group1	*	*group1	*	*group1	*
*part7	*	*part6	*part5	*part4	*part3	*part3	*part2	*part2	*part1	*part1
*staff7	*	*staff6	*staff5	*staff4	*staff3	*staff3	*staff2	*staff2	*staff1	*staff1
*I"[bc]	*	*I"Violon	*I"Violino 2:do	*I"Violino. 1.	*I"Baſsus./.	*	*I"A.	*	*I"Canto.	*
*I'bc	*	*I'vlc	*I'vl 2	*I'vl 1	*I'B	*	*I'A	*	*I'S	*
*	*	*Icello	*Ivioln	*Ivioln	*Ibass	*	*Ialto	*	*Isoprn	*
*	*	*ICstr	*ICstr	*ICstr	*ICvox	*	*ICvox	*	*ICvox	*
*IGcont	*	*IGcont	*	*	*IGsolo	*	*IGsolo	*	*IGsolo	*
*clefF4	*	*clefF4	*clefG2	*clefG2	*clefF4	*	*clefC3	*	*clefC1	*
*Trd0c0	*	*	*	*	*	*	*	*	*	*
*k[b-]	*	*k[b-]	*k[b-]	*k[b-]	*k[b-]	*	*k[b-]	*	*k[b-]	*
*F:	*	*F:	*F:	*F:	*F:	*	*F:	*	*F:	*
*M4/4	*	*M4/4	*M4/4	*M4/4	*M4/4	*	*M4/4	*	*M4/4	*
*met(c)	*	*met(c)	*met(c)	*met(c)	*met(c)	*	*met(c)	*	*met(c)	*
=1-	=1-	=1-	=1-	=1-	=1-	=1-	=1-	=1-	=1-	=1-
*all\right	*	*all\right	*all\right	*all\right	*	*	*all\right	*	*	*
!	!	!LO:TX:a:i:t=Motetto a 5. C. A. B. 2 violini di Sig&colon; Gasp&colon; Forstr&colon;	!	!	!	!	!	!	!	!
!LO:TX:a:i:t=Motetto a 5. C. A. B. 2 violini di Sig&colon; G Forster.	!	!LO:TX:b:t=Sinfoni	!LO:TX:a:i:t=Motetto a 5. C. A. B. 2 violini di G Forster.	!LO:TX:a:i:t=Motetto â 5. C. A. B. 2 violini di Sig&colon; G Forster&colon;	!	!	!	!	!	!
!LO:TX:b:t=Adagio.	!	!LO:TX:a:t=adagio	!LO:TX:b:t=adagio	!LO:TX:b:t=Adagio	!LO:TX:a:t=17.	!	!LO:TX:a:i:t=Motetto a 5. C. A. B. 2 violini di G Forster	!	!LO:TX:b:i:t=14	!
1F	.	1F	2r	2r	00r	.	00r	.	00r	.
*	*	*	*	*2\right	*	*	*	*	*	*
.	.	.	2a/	2cc\	.	.	.	.	.	.
=2-	=2-	=2-	=2-	=2-	=2-	=2-	=2-	=2-	=2-	=2-
1D	5	1D	2a/	2.ff\	.	.	.	.	.	.
.	6	.	[2b-/	.	.	.	.	.	.	.
.	.	.	.	4ff\	.	.	.	.	.	.
=3-	=3-	=3-	=3-	=3-	=3-	=3-	=3-	=3-	=3-	=3-
1C	7 -	1C	2b-/]	1ee-X	.	.	.	.	.	.
!	!	!	!LO:TX:t=P:problem:kreska pseudotaktowa	!	!	!	!	!	!	!
.	6	.	2a/	.	.	.	.	.	.	.
=4-	=4-	=4-	=4-	=4-	=4-	=4-	=4-	=4-	=4-	=4-
!LO:TX:t=P:problem:kreska pseudotaktowa	!	!LO:TX:t=P:problem:kreska pseudotaktowa	!	!	!	!	!	!	!	!
1BB-	.	1BB-	2.b-/	2.dd\	.	.	.	.	.	.
.	.	.	4b-/	4dd\	.	.	.	.	.	.
=5-	=5-	=5-	=5-	=5-	=5-	=5-	=5-	=5-	=5-	=5-
1EE	6 5	1EE	2.b-/	2.cc\	00r	.	00r	.	00r	.
.	.	.	4b-/	4cc\	.	.	.	.	.	.
=6-	=6-	=6-	=6-	=6-	=6-	=6-	=6-	=6-	=6-	=6-
2FF/	.	2FF/	2a/	4cc\	.	.	.	.	.	.
.	.	.	.	4cc\	.	.	.	.	.	.
2BB-/	.	2BB-/	4r	2dd\	.	.	.	.	.	.
.	.	.	4d/	.	.	.	.	.	.	.
=7-	=7-	=7-	=7-	=7-	=7-	=7-	=7-	=7-	=7-	=7-
2C/	.	2C/	2e/	2cc\	.	.	.	.	.	.
!LO:N:acc=#	!	!LO:N:acc=#	!	!	!	!	!	!	!	!
2BBn/	6 -5	2BBn/	[2f/	2dd\	.	.	.	.	.	.
=8-	=8-	=8-	=8-	=8-	=8-	=8-	=8-	=8-	=8-	=8-
!LO:TX:t=P:problem:kreska pseudotaktowa	!	!LO:TX:t=P:problem:kreska pseudotaktowa	!	!	!	!	!	!	!	!
1C	5 4	1C	2f/]	2.g/	.	.	.	.	.	.
!	!	!	!LO:TX:t=P:problem:kreska pseudotaktowa	!	!	!	!	!	!	!
.	 3	.	2e/	.	.	.	.	.	.	.
!	!	!	!	!LO:TX:t=P:problem:kreska pseudotaktowa	!	!	!	!	!	!
.	.	.	.	4g/	.	.	.	.	.	.
=9-	=9-	=9-	=9-	=9-	=9-	=9-	=9-	=9-	=9-	=9-
!	!	!	!LO:TX:b:t=allegro	!	!	!	!	!	!	!
2FF/	.	2FF/	16f/LL	4a/	00r	.	00r	.	00r	.
.	.	.	16f/	.	.	.	.	.	.	.
.	.	.	16a/	.	.	.	.	.	.	.
.	.	.	16cc/JJ	.	.	.	.	.	.	.
!	!	!	!	!LO:TX:b:i:t=Allegro	!	!	!	!	!	!
.	.	.	16a/LL	4r	.	.	.	.	.	.
.	.	.	16f/	.	.	.	.	.	.	.
.	.	.	16g/	.	.	.	.	.	.	.
.	.	.	16f/JJ	.	.	.	.	.	.	.
2C/	.	2C/	4.e/	16r	.	.	.	.	.	.
.	.	.	.	16cc\LL	.	.	.	.	.	.
.	.	.	.	16eeny\	.	.	.	.	.	.
.	.	.	.	16gg\JJ	.	.	.	.	.	.
.	.	.	.	16ee\LL	.	.	.	.	.	.
.	.	.	.	16cc\	.	.	.	.	.	.
!	!	!	!LO:TX:t=P:problem:kreska pseudotaktowa	!	!	!	!	!	!	!
.	.	.	8f#X/	16dd\	.	.	.	.	.	.
!	!	!	!	!LO:TX:t=P:problem:kreska pseudotaktowa	!	!	!	!	!	!
.	.	.	.	16cc\JJ	.	.	.	.	.	.
=10-	=10-	=10-	=10-	=10-	=10-	=10-	=10-	=10-	=10-	=10-
2GG/	.	2GG/	16g/LL	4.b-/	.	.	.	.	.	.
.	.	.	16g/	.	.	.	.	.	.	.
.	.	.	16b-/	.	.	.	.	.	.	.
.	.	.	16dd/JJ	.	.	.	.	.	.	.
.	.	.	16b-/LL	.	.	.	.	.	.	.
.	.	.	16g/	.	.	.	.	.	.	.
.	.	.	16a/	8b-/	.	.	.	.	.	.
.	.	.	16g/JJ	.	.	.	.	.	.	.
2D/	-	2D/	4.fny/	16a\LL	.	.	.	.	.	.
.	.	.	.	16dd\	.	.	.	.	.	.
.	.	.	.	16ff\	.	.	.	.	.	.
.	.	.	.	16aa\JJ	.	.	.	.	.	.
.	.	.	.	16ff\LL	.	.	.	.	.	.
.	.	.	.	16dd\	.	.	.	.	.	.
!	!	!	!LO:TX:t=P:problem:kreska pseudotaktowa	!	!	!	!	!	!	!
.	.	.	8f/	16ee\	.	.	.	.	.	.
!	!	!	!	!LO:TX:t=P:problem:kreska pseudotaktowa	!	!	!	!	!	!
.	.	.	.	16dd\JJ	.	.	.	.	.	.
=11-	=11-	=11-	=11-	=11-	=11-	=11-	=11-	=11-	=11-	=11-
8A\L	.	8A\L	4e/	16cc\LL	.	.	.	.	.	.
.	.	.	.	16ee\	.	.	.	.	.	.
8G\	.	8G\	.	16ff\	.	.	.	.	.	.
.	.	.	.	16gg\JJ	.	.	.	.	.	.
8F\	.	8F\	16r	8aa\L	.	.	.	.	.	.
.	.	.	16a\LL	.	.	.	.	.	.	.
!	!	!	!LO:TX:t=P:problem:# above	!	!	!	!	!	!	!
!	!	!	!LO:N:acc=#	!	!	!	!	!	!	!
8E\J	.	8E\J	16bn\	8gg\J	.	.	.	.	.	.
!	!	!	!LO:TX:t=P:problem:# above	!	!	!	!	!	!	!
.	.	.	16cc#X\JJ	.	.	.	.	.	.	.
!	!	!LO:TX:t=P:problem:mixed beam	!	!	!	!	!	!	!	!
8D/L	.	8D\L	8dd\L	8ff\L	.	.	.	.	.	.
8GG/J	6	8GG/J	8dd\	8ee\	.	.	.	.	.	.
!LO:TX:t=P:problem:kreska pseudotaktowa	!	!LO:TX:t=P:problem:kreska pseudotaktowa	!	!	!	!	!	!	!	!
4AA/	4	4AA/	8.dd\	8.ee\	.	.	.	.	.	.
!	!	!	!LO:TX:t=P:problem:kreska pseudotaktowa	!	!	!	!	!	!	!
!	!	!	!LO:TX:t=P:problem:# above	!LO:TX:t=P:problem:kreska pseudotaktowa	!	!	!	!	!	!
.	3	.	16cc#X\Jk	16ee\Jk	.	.	.	.	.	.
=12-	=12-	=12-	=12-	=12-	=12-	=12-	=12-	=12-	=12-	=12-
!	!	!	!LO:TX:t=P:problem:mixed beam	!	!	!	!	!	!	!
2D/	-	2D/	16dd\LL	4ff\	.	.	.	.	.	.
.	.	.	16d/	.	.	.	.	.	.	.
.	.	.	16f/	.	.	.	.	.	.	.
.	.	.	16a/JJ	.	.	.	.	.	.	.
.	.	.	16f/LL	4r	.	.	.	.	.	.
.	.	.	16d/	.	.	.	.	.	.	.
.	.	.	16e/	.	.	.	.	.	.	.
!	!	!	!LO:SIC:v:t=custos c	!	!	!	!	!	!	!
.	.	.	16d/JJ	.	.	.	.	.	.	.
!	!	!	!LO:LB:g=original	!	!	!	!	!	!	!
4.AA/	6	4.AA/	4.c/	16r	.	.	.	.	.	.
.	.	.	.	16ff\LL	.	.	.	.	.	.
.	.	.	.	16aa\	.	.	.	.	.	.
.	.	.	.	16ccc\JJ	.	.	.	.	.	.
.	.	.	.	16aa\LL	.	.	.	.	.	.
.	.	.	.	16ff\	.	.	.	.	.	.
!	!	!	!LO:TX:t=P:problem:kreska pseudotaktowa	!	!	!	!	!	!	!
8BB-y/	.	8BB-y/	8d/	16gg\	.	.	.	.	.	.
!	!	!	!	!LO:TX:t=P:problem:kreska pseudotaktowa	!	!	!	!	!	!
.	.	.	.	16ff\JJ	.	.	.	.	.	.
=13-	=13-	=13-	=13-	=13-	=13-	=13-	=13-	=13-	=13-	=13-
!	!	!	!LO:TX:t=P:problem:mixed beam	!	!	!	!	!	!	!
2C/	.	2C/	16e/LL	4ee\	00r	.	0r	.	0r	.
.	.	.	16ccny\	.	.	.	.	.	.	.
.	.	.	16ee\	.	.	.	.	.	.	.
.	.	.	16gg\JJ	.	.	.	.	.	.	.
!	!	!	!	!LO:SIC:v:t=custos f	!	!	!	!	!	!
.	.	.	16ee\LL	4r	.	.	.	.	.	.
.	.	.	16cc\	.	.	.	.	.	.	.
.	.	.	16dd\	.	.	.	.	.	.	.
.	.	.	16ee\JJ	.	.	.	.	.	.	.
!	!	!	!	!LO:LB:g=original	!	!	!	!	!	!
2AA/	6	2AA/	4.ff\	16r	.	.	.	.	.	.
.	.	.	.	16f/LL	.	.	.	.	.	.
.	.	.	.	16a/	.	.	.	.	.	.
.	.	.	.	16cc/JJ	.	.	.	.	.	.
.	.	.	.	16a/LL	.	.	.	.	.	.
.	.	.	.	16f/	.	.	.	.	.	.
!	!	!	!LO:TX:t=P:problem:kreska pseudotaktowa	!	!	!	!	!	!	!
.	.	.	8ff\	16cc/	.	.	.	.	.	.
!	!	!	!	!LO:TX:t=P:problem:kreska pseudotaktowa	!	!	!	!	!	!
.	.	.	.	16a/JJ	.	.	.	.	.	.
=14-	=14-	=14-	=14-	=14-	=14-	=14-	=14-	=14-	=14-	=14-
*	*	*	*2\right	*	*	*	*	*	*	*
4BB-/	.	4BB-/	2ff\	4.dd\	.	.	.	.	.	.
!	!	!LO:TX:b:i:t=Benedicam	!	!	!	!	!	!	!	!
!LO:N:acc=#	!	!LO:N:acc=#	!	!	!	!	!	!	!	!
4BBn/	6 -5	4BBn/	.	.	.	.	.	.	.	.
.	.	.	.	8g/	.	.	.	.	.	.
!LO:TX:b:i:t=Benedicam	!	!LO:TX:t=P:problem:kreska pseudotaktowa	!	!	!	!	!	!	!	!
2C/	4	2C/	4.ff\	4.g/	.	.	.	.	.	.
.	3	.	8ee\	8g/	.	.	.	.	.	.
=15-	=15-	=15-	=15-	=15-	=15-	=15-	=15-	=15-	=15-	=15-
4F\	.	4F\	4ff\	4a/	.	.	16a\LL	Be-	16cc\LL	Be-
.	.	.	.	.	.	.	16f\JJ	.	16a\JJ	.
.	.	.	.	.	.	.	16g\LL	-ne-	16b-\LL	-ne-
.	.	.	.	.	.	.	16a\JJ	.	16cc\JJ	.
4BB-y/	.	4BB-y/	4r	4r	.	.	16b-\LL	-di-	16dd\LL	-di-
.	.	.	.	.	.	.	16g\JJ	.	16b-\JJ	.
.	.	.	.	.	.	.	16a\LL	-cam	16cc\LL	-cam
.	.	.	.	.	.	.	16b-\JJ	.	16dd\JJ	.
!	!	!	!	!LO:TX:t=P:problem:kreska pseudotaktowa	!	!	!	!	!	!
!	!	!	!LO:TX:t=P:problem:kreska pseudotaktowa	!LO:TX:b:i:t=Benedicam	!	!	!	!	!	!
4.FF/	.	4.FF/	2r	2r	.	.	16a\LL	do-	16cc\LL	do-
.	.	.	.	.	.	.	16b-\JJ	.	16dd\JJ	.
.	.	.	.	.	.	.	16a\LL	-mi-	16cc\LL	-mi-
.	.	.	.	.	.	.	16g\JJ	.	16b-\JJ	.
.	.	.	.	.	.	.	8f\	-num	8a\	-num
!LO:TX:t=P:problem:kreska pseudotaktowa	!	!	!	!	!	!	!LO:TX:t=P:problem:kreska pseudotaktowa	!	!LO:TX:t=P:problem:oddechy/rozdzielacze słów pełniące funkcje kresek pseudotaktowych	!
8AA/	6	8AA/	.	.	.	.	8f\	in	8cc,<\	in
=16-	=16-	=16-	=16-	=16-	=16-	=16-	=16-	=16-	=16-	=16-
!	!	!	!LO:TX:b:i:t=Benedicam	!	!	!	!	!	!	!
4BB-/	.	4BB-/	2r	2r	.	.	8f\	om-	8dd\	om-
.	.	.	.	.	.	.	8f\	-ni-	8g/	-ni-
4C/	4	4C/	.	.	.	.	8.f\	-tem-	8.g/	-tem-
.	3	.	.	.	.	.	16e\	-po-	16g/	-po-
4F\	.	4F\	16a/LL	16cc\LL	.	.	4f\	-re	4a\	-re
.	.	.	16f/	16a\	.	.	.	.	.	.
.	.	.	16g/	16b-\	.	.	.	.	.	.
.	.	.	16a/JJ	16cc\JJ	.	.	.	.	.	.
!	!	!LO:TX:t=P:problem:kreska pseudotaktowa	!	!	!	!	!	!	!	!
4BB-/	.	4BB-/	16b-y/LL	16dd\LL	.	.	4r	.	4r	.
.	.	.	16g/	16b-\	.	.	.	.	.	.
.	.	.	16a/	16cc\	.	.	.	.	.	.
!	!	!	!LO:TX:t=P:problem:kreska pseudotaktowa	!LO:TX:t=P:problem:kreska pseudotaktowa	!	!	!	!	!	!
.	.	.	16b-/JJ	16dd\JJ	.	.	.	.	.	.
=17-	=17-	=17-	=17-	=17-	=17-	=17-	=17-	=17-	=17-	=17-
!	!	!	!	!	!	!	!	!	!LO:TX:b:i:t=2.	!
4FF/	.	4FF/	16a/LL	16cc\LL	1r	.	0r	.	0r	.
.	.	.	16b-/	16dd\	.	.	.	.	.	.
.	.	.	16a/	16cc\	.	.	.	.	.	.
.	.	.	16g/JJ	16b-\JJ	.	.	.	.	.	.
[4F\	6	[4F\	8f/L	8a\L	.	.	.	.	.	.
.	.	.	8a/J	8cc\J	.	.	.	.	.	.
!	!	!	!LO:N:acc=#	!	!	!	!	!	!	!
8F\L]	4 2	8F\L]	8bn\L	8dd\L	.	.	.	.	.	.
8E\	6	8E\	8cc\	8ee\	.	.	.	.	.	.
8F\	.	8F\	8.cc\	8.dd\	.	.	.	.	.	.
!LO:SIC:v:t=custos C	!	!	!	!	!	!	!	!	!	!
8G\J	#	8G\J	.	.	.	.	.	.	.	.
!	!	!	!LO:TX:t=P:problem:# above	!LO:TX:t=P:problem:kreska pseudotaktowa	!	!	!	!	!	!
!	!	!	!LO:N:acc=#	!	!	!	!	!	!	!
.	.	.	16bn\Jk	16dd\Jk	.	.	.	.	.	.
!LO:LB:g=original	!	!LO:LB:g=original	!	!	!	!	!	!	!	!
=18-	=18-	=18-	=18-	=18-	=18-	=18-	=18-	=18-	=18-	=18-
4C/	.	4C/	4cc\	4ee\	16G\LL	Be-	.	.	.	.
.	.	.	.	.	16E\JJ	.	.	.	.	.
.	.	.	.	.	16F\LL	-ne-	.	.	.	.
.	.	.	.	.	16G\JJ	.	.	.	.	.
4FF/	.	4FF/	4r	4r	16A\LL	-di-	.	.	.	.
.	.	.	.	.	16F\JJ	.	.	.	.	.
.	.	.	.	.	16G\LL	-cam	.	.	.	.
.	.	.	.	.	16A\JJ	.	.	.	.	.
4.C/	.	4.C/	2r	2r	16G\LL	do-	.	.	.	.
.	.	.	.	.	16A\JJ	.	.	.	.	.
.	.	.	.	.	16G\LL	-mi-	.	.	.	.
.	.	.	.	.	16F\JJ	.	.	.	.	.
.	.	.	.	.	8E\	-num	.	.	.	.
!	!	!	!	!	!LO:TX:t=P:problem:oddechy/rozdzielacze słów pełniące funkcje kresek pseudotaktowych	!	!	!	!	!
8EE/	6	8EE/	.	.	8G,<\	in	.	.	.	.
=19-	=19-	=19-	=19-	=19-	=19-	=19-	=19-	=19-	=19-	=19-
4FF/	.	4FF/	1r	0r	8A\	om-	2r	.	2r	.
.	.	.	.	.	8D/	-ni-	.	.	.	.
4GG/	.	4GG/	.	.	8.D/	-tem-	.	.	.	.
.	.	.	.	.	16D/	-po-	.	.	.	.
*	*	*	*	*	*	*	*	*ij	*	*ij
4C/	.	4C/	.	.	4C/	-re	16g\LL	Be-	16ee\LL	Be-
.	.	.	.	.	.	.	16e\JJ	.	16cc\JJ	.
.	.	.	.	.	.	.	16f\LL	-ne-	16dd\LL	-ne-
.	.	.	.	.	.	.	16g\JJ	.	16ee\JJ	.
!LO:TX:t=P:problem:kreska pseudotaktowa	!	!LO:TX:t=P:problem:kreska pseudotaktowa	!	!	!	!	!	!	!	!
4FF/	.	4FF/	.	.	4r	.	16a\LL	-di-	16ff\LL	-di-
.	.	.	.	.	.	.	16f\JJ	.	16dd\JJ	.
.	.	.	.	.	.	.	16g\LL	-cam	16ee\LL	-cam
!	!	!	!	!	!	!	!LO:TX:t=P:problem:kreska pseudotaktowa	!	!	!
.	.	.	.	.	.	.	16a\JJ	.	16ff,<\JJ	.
=20-	=20-	=20-	=20-	=20-	=20-	=20-	=20-	=20-	=20-	=20-
!	!	!	!	!	!LO:TX:a:t=2.	!	!	!	!	!
4.C/	.	4.C/	1r	.	0r	.	16g\LL	do-	16ee\LL	do-
.	.	.	.	.	.	.	16a\JJ	.	16ff\JJ	.
.	.	.	.	.	.	.	16g\LL	-mi-	16ee\LL	-mi-
.	.	.	.	.	.	.	16f\JJ	.	16dd\JJ	.
.	.	.	.	.	.	.	8e\	-num	8cc\	-num
!	!	!LO:TX:t=P:problem:# below	!	!	!	!	!	!	!	!
!LO:N:acc=#	!	!LO:N:acc=#	!	!	!	!	!	!	!	!
8BBn/	6	8BBn/	.	.	.	.	8g\	in	8dd\	in
!	!	!	!	!	!	!	!LO:LB:g=original	!	!	!
4C/	.	4C/	.	.	.	.	8g\	om-	8ee\	om-
.	.	.	.	.	.	.	8g\	-ni-	8a\	-ni-
4D/	4	4D/	.	.	.	.	8.g\	-tem-	8.a\	-tem-
!	!	!	!	!	!	!	!LO:TX:t=P:problem:kreska pseudotaktowa	!	!	!
.	3	.	.	.	.	.	16f#X\	-po-	16a\	-po-
=21-	=21-	=21-	=21-	=21-	=21-	=21-	=21-	=21-	=21-	=21-
!	!	!	!	!	!	!	!	!	!LO:TX:t=P:problem:# above	!
!	!	!	!LO:N:acc=#	!	!	!	!	!	!LO:N:acc=#	!
4G\	#	4G\	16bn/LL	16dd\LL	.	.	4g\	-re	4bn\	-re
*	*	*	*	*	*	*	*	*Xij	*	*Xij
!	!	!	!	!LO:TX:t=P:problem:# above	!	!	!	!	!	!
!	!	!	!	!LO:N:acc=#	!	!	!	!	!	!
.	.	.	16g/	16bn\	.	.	.	.	.	.
.	.	.	16a/	16cc\	.	.	.	.	.	.
.	.	.	16b/JJ	16dd\JJ	.	.	.	.	.	.
4C/	.	4C/	16cc\LL	16ee\LL	.	.	4r	.	4r	.
.	.	.	16a\	16cc\	.	.	.	.	.	.
.	.	.	16b\	16dd\	.	.	.	.	.	.
.	.	.	16cc\JJ	16ee\JJ	.	.	.	.	.	.
!	!	!	!LO:N:acc=#	!	!	!	!	!	!	!
4.G\	#	4.G\	16bn/LL	16dd\LL	.	.	2r	.	2r	.
.	.	.	16cc/	16ee\	.	.	.	.	.	.
.	.	.	16b/	16dd\	.	.	.	.	.	.
.	.	.	16a/JJ	16cc\JJ	.	.	.	.	.	.
!	!	!	!	!LO:N:acc=#	!	!	!	!	!	!
.	.	.	8g/L	8bn\L	.	.	.	.	.	.
!LO:TX:t=P:problem:kreska pseudotaktowa	!	!LO:TX:t=P:problem:kreska pseudotaktowa	!	!	!	!	!	!	!	!
8G\	.	8G\	16b/L	16dd\L	.	.	.	.	.	.
!	!	!	!LO:TX:t=P:problem:kreska pseudotaktowa	!LO:TX:t=P:problem:kreska pseudotaktowa	!	!	!	!	!	!
.	.	.	16cc/JJ	16ee\JJ	.	.	.	.	.	.
=22-	=22-	=22-	=22-	=22-	=22-	=22-	=22-	=22-	=22-	=22-
!LO:TX:t=P:problem:mixed beam	!	!LO:TX:t=P:problem:mixed beam	!	!	!	!	!	!	!	!
8D\L	-	8D\L	8dd\L	8ff\L	2r	.	1r	.	1r	.
8G\	6	8G\	8dd\	8ee\	.	.	.	.	.	.
8A\	4	8A\	8.dd\	8.ee\	.	.	.	.	.	.
8GG/J	3	8GG/J	.	.	.	.	.	.	.	.
!	!	!	!LO:TX:t=P:problem:# above	!	!	!	!	!	!	!
.	.	.	16cc#X\Jk	16ee\Jk	.	.	.	.	.	.
4D/	.	4D/	4dd\	4ff\	8r	.	.	.	.	.
.	.	.	.	.	8D/	ſem-	.	.	.	.
!	!	!	!LO:LB:g=original	!	!	!	!	!	!	!
8C/L	.	8C/L	4r	4r	16C/LL	-per	.	.	.	.
.	.	.	.	.	16D/JJ	.	.	.	.	.
!LO:TX:t=P:problem:kreska pseudotaktowa	!	!	!	!	!	!	!	!	!	!
8BB-y/J	.	8BB-y/J	.	.	16BB-/LL	laus	.	.	.	.
.	.	.	.	.	16C/JJ	.	.	.	.	.
!	!	!	!	!	!	!	!	!	!LO:LB:g=original	!
=23-	=23-	=23-	=23-	=23-	=23-	=23-	=23-	=23-	=23-	=23-
4AA/	6	4AA/	1r	1r	4AA/	e-	8r	.	8r	.
.	.	.	.	.	.	.	8a\	Sem-	8cc\	ſem-
4BB-/	.	4BB-/	.	.	8BB-/	-ius	16g\LL	-per	16b-y\LL	-per
.	.	.	.	.	.	.	16a\JJ	.	16cc\JJ	.
.	.	.	.	.	8BB-/	in	16f\LL	laus	16a\LL	laus
.	.	.	.	.	.	.	16g\JJ	.	16b-\JJ	.
!	!	!LO:TX:t=P:problem:kreska pseudotaktowa	!	!	!	!	!	!	!	!
2C/	.	2C/	.	.	4C/	o-	4e\	e-	4g/	e-
.	.	.	.	.	8C/	-re	8e\	-ius	8g/	-ius
!	!	!	!	!	!LO:SIC:v:t=custos GG	!	!LO:TX:t=P:problem:kreska pseudotaktowa	!	!	!
.	.	.	.	.	8C/	in	8f#X\	in	8a,<\	in
!	!	!	!	!	!LO:LB:g=original	!	!	!	!	!
=24-	=24-	=24-	=24-	=24-	=24-	=24-	=24-	=24-	=24-	=24-
4GG/	.	4GG/	8r	8r	4GG/	o-	4g\	o-	4b-\	o-
.	.	.	8gg\	8bb-X\	.	.	.	.	.	.
4AA/	6	4AA/	16ff\LL	16aa\LL	4AA/	-re	(<8c/	-re	4cc\	-re
.	.	.	16gg\	16bb-\	.	.	.	.	.	.
.	.	.	16ee\	16gg\	.	.	8fny\)	.	.	.
.	.	.	16ff\JJ	16aa\JJ	.	.	.	.	.	.
*	*	*	*	*	*	*	*2\right	*	*	*
!LO:TX:t=P:problem:kreska pseudotaktowa	!	!	!	!LO:LB:g=original	!	!	!	!	!	!
2BB-/	.	2BB-/	4dd\	4ff\	16BB-/LL	me-	2f\	me-	16dd\LL	me-
.	.	.	.	.	16AA/	.	.	.	16cc\	.
.	.	.	.	.	16BB-/	.	.	.	16dd\	.
.	.	.	.	.	16C/JJ	.	.	.	16ee\JJ	.
.	.	.	8dd\L	8ff\L	4GG/	.	.	.	4dd,<\	.
!	!	!	!LO:TX:t=P:problem:kreska pseudotaktowa	!LO:TX:t=P:problem:kreska pseudotaktowa	!	!	!	!	!	!
.	.	.	8ee\J	8gg\J	.	.	.	.	.	.
=25-	=25-	=25-	=25-	=25-	=25-	=25-	=25-	=25-	=25-	=25-
!LO:TX:t=P:problem:mixed beam	!	!LO:TX:t=P:problem:mixed beam	!	!	!	!	!	!	!	!
8FF/L	.	8FF/L	8ff\L	8aa\L	8FF/	-o	4f\	-o	4cc\	-o
8F\	.	8F\	8ccny\J	8aa\J	8F\	in	.	.	.	.
8E\	.	8E\	4cc\	16gg\LL	(16E\LL	o-	4r	.	4r	.
.	.	.	.	16aa\	16F\JJ	.	.	.	.	.
8D\J	.	8D\J	.	16ff\	16D\LL	.	.	.	.	.
.	.	.	.	16gg\JJ	16E\JJ)	.	.	.	.	.
!	!	!	!	!LO:TX:t=P:problem:kreska pseudotaktowa	!	!	!	!	!	!
2C/	8 6	2C/	4cc\	4ee\	2C/	.	8r	.	8r	.
*	*	*	*	*	*	*	*	*ij	*	*ij
.	.	.	.	.	.	.	8a\	Sem-	8cc\	ſem-
!	!	!	!LO:TX:t=P:problem:kreska pseudotaktowa	!	!	!	!	!	!	!
.	7 5	.	4r	4r	.	.	16g\LL	-per	16b-\LL	-per
.	.	.	.	.	.	.	16a\JJ	.	16cc\JJ	.
.	.	.	.	.	.	.	16f\LL	laus	16a\LL	laus
!	!	!	!	!	!	!	!LO:TX:t=P:problem:kreska pseudotaktowa	!	!	!
.	.	.	.	.	.	.	16g\JJ	.	16b-,<\JJ	.
=26-	=26-	=26-	=26-	=26-	=26-	=26-	=26-	=26-	=26-	=26-
4.C/	5 3	4.C/	4r	4r	4.C/	-re,	4e\	e-	4g/	e-
.	.	.	8r	8r	.	.	8e\	-ius	8g/	-ius
8AA/	6	8AA/	8cc\	8aa\	8AA/	in	8f\	in	8a\	in
4BB-/	6 5	4BB-/	8dd\L	8gg\L	8BB-/	o-	8f\	o-	8a\	o-
.	.	.	8dd\J	8gg\J	8BB-/	-re	8f\	-re	8g/	-re
!LO:TX:t=P:problem:kreska pseudotaktowa	!	!LO:TX:t=P:problem:kreska pseudotaktowa	!LO:TX:t=P:problem:kreska pseudotaktowa	!LO:TX:t=P:problem:kreska pseudotaktowa	!	!	!	!	!	!
4C/	4	4C/	4cc\	4gg\	4C/	me-	8.f\	me-	4g,</	me-
.	3	.	.	.	.	.	16e\	.	.	.
!	!	!	!	!	!	!	!LO:LB:g=original	!	!	!
=27-	=27-	=27-	=27-	=27-	=27-	=27-	=27-	=27-	=27-	=27-
4FF/	.	4FF/	4cc\	4ff\	8F\	-o	4f\	-o	8a\	-o
*	*	*	*	*	*	*ij	*	*Xij	*	*Xij
.	.	.	.	.	8FF/	in	.	.	8ff\	ſem-
4GG/	#6r	4GG/	4r	4r	8GG/	o-	4r	.	16ee\LL	-per
.	.	.	.	.	.	.	.	.	16ff\JJ	.
.	.	.	.	.	8GG/	-re	.	.	16dd\LL	laus
!	!	!	!	!	!	!	!	!	!LO:SIC:v:t=custos cc	!
.	.	.	.	.	.	.	.	.	16ee\JJ	.
!	!	!	!	!	!	!	!	!	!LO:LB:g=original	!
4AA/	.	4AA/	2r	2r	4AA/	me-	8r	.	8cc\L	e-
.	.	.	.	.	.	.	8a\	sem-	16dd\L	.
.	.	.	.	.	.	.	.	.	16cc\JJ	.
4BB-/	.	4BB-/	.	.	4BB-/	-o	16g\LL	-per	16b-\LL	.
*	*	*	*	*	*	*Xij	*	*	*	*
.	.	.	.	.	.	.	16a\JJ	.	16cc\	.
.	.	.	.	.	.	.	16f\LL	laus	16a\	.
!	!	!	!	!	!	!	!LO:TX:t=P:problem:kreska pseudotaktowa	!	!	!
.	.	.	.	.	.	.	16g\JJ	.	16b-,<\JJ	.
=28-	=28-	=28-	=28-	=28-	=28-	=28-	=28-	=28-	=28-	=28-
4C/	.	4C/	1r	0r	8r	.	4e\	e-	4g/	.
.	.	.	.	.	8C/	ſem-	.	.	.	.
8BB-/L	.	8BB-/L	.	.	(16BB-/LL	-per	8e\	-ius	8g/	-ius
.	.	.	.	.	16C/JJ)	.	.	.	.	.
8AA/J	.	8AA/J	.	.	(16AA/LL	laus	8f#X\	in	8a\	in
.	.	.	.	.	16BB-/JJ)	.	.	.	.	.
4GG/	.	4GG/	.	.	4GG/	e-	4g\	o-	4b-\	o-
!LO:SIC:v:t=custos BB-	!	!LO:TX:t=P:problem:kreska pseudotaktowa	!	!	!	!	!	!	!	!
4AA/	#6	4AA/	.	.	8AA/	-ius	8f#X\	-re	8cc\	-re
!	!	!	!	!	!LO:SIC:v:t=custos BB-	!	!LO:TX:t=P:problem:kreska pseudotaktowa	!	!	!
.	.	.	.	.	8AA/	in	8a\	in	8cc,<\	in
!LO:LB:g=original	!	!	!	!	!LO:LB:g=original	!	!	!	!	!
=29-	=29-	=29-	=29-	=29-	=29-	=29-	=29-	=29-	=29-	=29-
8BB-/L	6	8BB-/L	1r	.	8BB-/	o-	8g\	o-	8dd\	o-
8C/J	.	8C/J	.	.	8C/	-re	8g\	-re	16cc\LL	-re
.	.	.	.	.	.	.	.	.	16b-\JJ	.
4D/	4	4D/	.	.	4D/	me-	8.g\	me-	4a\	me-
.	3	.	.	.	.	.	(16f#X\	-o	.	.
!LO:TX:t=P:problem:mixed beam	!	!LO:TX:t=P:problem:mixed beam	!	!	!	!	!	!	!	!
8GG/L	.	8GG/L	.	.	8GG/	-o	4g\)	.	4b-\	-o
8G\	.	8G\	.	.	8G\	ſem-	.	.	.	.
8F\	.	8F\	.	.	16F\LL	-per	4r	.	4r	.
.	.	.	.	.	16G\JJ	.	.	.	.	.
!	!	!LO:SIC:v:t=custos D	!	!	!	!	!	!	!	!
!LO:TX:t=P:problem:kreska pseudotaktowa	!	!LO:TX:t=P:problem:♭ above	!	!	!	!	!	!	!	!
8E-X\J	.	8E-X\J	.	.	16E-X\LL	laus	.	.	.	.
.	.	.	.	.	16F\JJ	.	.	.	.	.
!	!	!LO:LB:g=original	!	!	!	!	!	!	!	!
=30-	=30-	=30-	=30-	=30-	=30-	=30-	=30-	=30-	=30-	=30-
!	!	!	!	!	!	!	!	!	!LO:TX:a:t=2.	!
4D/	6	4D/	8r	8r	4D\	e-	1r	.	0r	.
.	.	.	8dd\	8ff\	.	.	.	.	.	.
4E-X\	.	4E-X\	16cc\LL	16ee-X\LL	4E-X\	-ius	.	.	.	.
.	.	.	16dd\	16ff\	.	.	.	.	.	.
.	.	.	16b-y\	16dd\	.	.	.	.	.	.
.	.	.	16cc\JJ	16ee-\JJ	.	.	.	.	.	.
4F\	.	4F\	4a/	4cc\	8r	.	.	.	.	.
.	.	.	.	.	8F\	ſem-	.	.	.	.
8E-X\L	.	8E-X\L	8a/L	8cc\L	16E-X\LL	-per	.	.	.	.
.	.	.	.	.	16F\JJ	.	.	.	.	.
!	!	!	!LO:TX:t=P:problem:kreska pseudotaktowa	!LO:TX:t=P:problem:kreska pseudotaktowa	!	!	!	!	!	!
8D\J	.	8D\J	8b-/J	8dd\J	16D\LL	laus	.	.	.	.
.	.	.	.	.	16E-\JJ	.	.	.	.	.
=31-	=31-	=31-	=31-	=31-	=31-	=31-	=31-	=31-	=31-	=31-
2C/	-	2C/	16cc\LL	16ee-X\LL	4C/	e-	1r	.	.	.
.	.	.	16b-\	16dd\	.	.	.	.	.	.
.	.	.	16cc\	16ee-\	.	.	.	.	.	.
.	.	.	16dd\JJ	16ff\JJ	.	.	.	.	.	.
!	!	!	!	!LO:TX:t=P:problem:♭ above	!	!	!	!	!	!
.	.	.	8cc\L	8ee-X\L	8C/	-ius	.	.	.	.
.	.	.	8cc\J	8ee-\J	8C/	in	.	.	.	.
4F\	6 5	4F\	4.cc\	8dd\L	(16F\LL	o-	.	.	.	.
.	.	.	.	.	16G\JJ)	.	.	.	.	.
.	.	.	.	8dd\	(16A-X\LL	-re	.	.	.	.
.	.	.	.	.	16F\JJ)	.	.	.	.	.
!	!	!	!	!	!LO:TX:t=P:problem:mixed beam	!	!	!	!	!
!	!	!	!	!	!LO:N:vis=8	!	!	!	!	!
4G\	4	4G\	.	8.dd\	8.G\L	me-	.	.	.	.
!	!	!	!LO:N:acc=#	!	!	!	!	!	!	!
.	3	.	8bn\	.	.	.	.	.	.	.
.	.	.	.	16dd\Jk	16GG/J	.	.	.	.	.
=32-	=32-	=32-	=32-	=32-	=32-	=32-	=32-	=32-	=32-	=32-
4C/	-	4C/	4cc\	4ee-X\	4C/	-o	8r	.	8r	.
.	.	.	.	.	.	.	8cc\	sem-	8ee-X\	ſem-
4D/	6	4D/	4r	4r	4r	.	16b-\LL	-per	16dd\LL	-per
.	.	.	.	.	.	.	16cc\JJ	.	16ee-\JJ	.
.	.	.	.	.	.	.	16a\LL	laus	16cc\LL	laus
.	.	.	.	.	.	.	16b-\JJ	.	16dd\JJ	.
*2\right	*	*2\right	*	*	*	*	*	*	*	*
!LO:TX:t=P:problem:kreska pseudotaktowa	!	!LO:TX:t=P:problem:kreska pseudotaktowa	!	!	!	!	!	!	!	!
2E-X\	.	2E-X\	2r	2r	2r	.	8.g\L	e-	8.b-\L	e-
.	.	.	.	.	.	.	16fny\Jk	.	16a\Jk	.
.	.	.	.	.	.	.	16g\LL	.	16b-\LL	.
.	.	.	.	.	.	.	16a\	.	16cc\	.
.	.	.	.	.	.	.	16g\	.	16b-\	.
!	!	!	!	!	!	!	!LO:TX:t=P:problem:kreska pseudotaktowa	!	!	!
.	.	.	.	.	.	.	16a\JJ	.	16cc,<\JJ	.
=33-	=33-	=33-	=33-	=33-	=33-	=33-	=33-	=33-	=33-	=33-
!	!	!	!	!	!LO:TX:a:t=4	!	!	!	!	!
4BB-/	.	4BB-/	00r	00r	00r	.	8b-X\L	.	8dd\L	.
.	.	.	.	.	.	.	16cc\L	.	16ee-X\L	.
.	.	.	.	.	.	.	16b-\JJ	.	16dd\JJ	.
4C/	.	4C/	.	.	.	.	16a\LL	.	16cc\LL	.
.	.	.	.	.	.	.	16b-\	.	16dd\	.
.	.	.	.	.	.	.	16g\	.	16b-\	.
!	!	!	!	!	!	!	!LO:SIC:v:t=custos f	!	!	!
.	.	.	.	.	.	.	16a\JJ	.	16cc\JJ	.
!	!	!	!	!	!	!	!LO:LB:g=original	!	!	!
2D/	.	2D/	.	.	.	.	8.f\L	.	8.a\L	.
.	.	.	.	.	.	.	16e\Jk	.	16g\Jk	.
.	.	.	.	.	.	.	16f\LL	.	16a\LL	.
.	.	.	.	.	.	.	16g\	.	16b-\	.
.	.	.	.	.	.	.	16f\	.	16a\	.
!	!	!	!	!	!	!	!LO:TX:t=P:problem:kreska pseudotaktowa	!	!LO:SIC:v:t=custos cc	!
.	.	.	.	.	.	.	16g\JJ	.	16b-,<\JJ	.
!	!	!	!	!	!	!	!	!	!LO:LB:g=original	!
=34-	=34-	=34-	=34-	=34-	=34-	=34-	=34-	=34-	=34-	=34-
4.AA/	6	4.AA/	.	.	.	.	16a\LL	.	16cc\LL	.
.	.	.	.	.	.	.	16g\	.	16b-\	.
.	.	.	.	.	.	.	16a\	.	16cc\	.
.	.	.	.	.	.	.	16b-\JJ	.	16dd\JJ	.
.	.	.	.	.	.	.	8a\	-ius	8cc\	-ius
8AA/	.	8AA/	.	.	.	.	8f\	in	8cc\	in
4BB-/	6 5	4BB-/	.	.	.	.	8f\	o-	8dd\	o-
.	.	.	.	.	.	.	8f\	-re	8g/	-re
4C/	4	4C/	.	.	.	.	8.f\	me-	4g,</	me-
!	!	!	!	!	!	!	!LO:TX:t=P:problem:kreska pseudotaktowa	!	!	!
.	3	.	.	.	.	.	(16e\	-o	.	.
=35-	=35-	=35-	=35-	=35-	=35-	=35-	=35-	=35-	=35-	=35-
!LO:TX:t=P:problem:mixed beam	!	!LO:TX:t=P:problem:mixed beam	!	!	!	!	!	!	!	!
8F\L	.	8F\L	.	.	.	.	8f\)	.	4a\	-o
8FF/	.	8FF/	.	.	.	.	8A/	in	.	.
!	!	!	!	!	!	!	!LO:N:acc=#:global	!	!	!
8GG/	.	8GG/	.	.	.	.	8Bn/	o-	4r	.
8AA/J	.	8AA/J	.	.	.	.	8c#X/	-re	.	.
4BB-/	.	4BB-/	.	.	.	.	8d\L	me-	8r	.
.	.	.	.	.	.	.	8d\	.	8f/	in
!LO:TX:t=P:problem:kreska pseudotaktowa	!	!LO:TX:t=P:problem:kreska pseudotaktowa	!	!	!	!	!	!	!	!
4AA/	.	4AA/	.	.	.	.	8e\	.	8g/	o-
!	!	!	!	!	!	!	!LO:TX:t=P:problem:kreska pseudotaktowa	!	!	!
.	.	.	.	.	.	.	8f\J	.	8a,<\	-re
=36-	=36-	=36-	=36-	=36-	=36-	=36-	=36-	=36-	=36-	=36-
2GG/	 3	2GG/	.	.	.	.	16g\LL	.	16b-\LL	me-
.	.	.	.	.	.	.	16a\	.	16cc\	.
.	.	.	.	.	.	.	16b-\	.	16dd\	.
.	.	.	.	.	.	.	16a\JJ	.	16cc\JJ	.
.	.	.	.	.	.	.	16g\LL	.	16b-\LL	.
.	.	.	.	.	.	.	16f\	.	16a\	.
.	.	.	.	.	.	.	16e\	.	16g\	.
.	.	.	.	.	.	.	16d\JJ	.	16f\JJ	.
2AA/	# 4	2AA/	.	.	.	.	8c#X/	.	16e/LL	.
.	.	.	.	.	.	.	.	.	16d/	.
.	 3	.	.	.	.	.	4d\	.	16e/	.
.	.	.	.	.	.	.	.	.	16f/JJ	.
.	.	.	.	.	.	.	.	.	4e,</	.
!	!	!	!	!	!	!	!LO:TX:t=P:problem:kreska pseudotaktowa	!	!	!
.	.	.	.	.	.	.	(<8c#X/	-o	.	.
=37-	=37-	=37-	=37-	=37-	=37-	=37-	=37-	=37-	=37-	=37-
4D/	.	4D/	1r	8r	8r	.	4d\)	.	4f/	-o
.	.	.	.	8ff\	8D/	ſem-	.	.	.	.
8C/L	.	8C/L	.	16eeny\LL	16C/LL	-per	4r	.	4r	.
.	.	.	.	16ff\	16D/JJ	.	.	.	.	.
8BB-/J	.	8BB-/J	.	16dd\	16BB-/LL	laus	.	.	.	.
.	.	.	.	16ee\JJ	16C/JJ	.	.	.	.	.
4AA/	6	4AA/	.	4cc\	4AA/	e-	8r	.	8r	.
.	.	.	.	.	.	.	8a\	sem-	8cc\	ſem-
!LO:TX:t=P:problem:kreska pseudotaktowa	!	!LO:TX:t=P:problem:kreska pseudotaktowa	!	!LO:TX:t=P:problem:kreska pseudotaktowa	!	!	!	!	!	!
4BB-/	6	4BB-/	.	4dd\	8BB-/	-ius	16g\LL	-per	16b-\LL	-per
.	.	.	.	.	.	.	16a\JJ	.	16cc\JJ	.
!	!	!	!	!	!LO:TX:t=P:problem:kreska pseudotaktowa	!	!	!	!	!
!	!	!	!	!	!LO:SIC:v:t=custos C	!	!	!	!	!
.	.	.	.	.	8BB-/	in	16f\LL	laus	16a\LL	laus
.	.	.	.	.	.	.	16g\JJ	.	16b-,<\JJ	.
!	!	!	!	!	!LO:LB:g=original	!	!LO:LB:g=original	!	!	!
=38-	=38-	=38-	=38-	=38-	=38-	=38-	=38-	=38-	=38-	=38-
2C/	.	2C/	2r	2ee\	4C/	o-	4e\	e-	4g/	e-
.	.	.	.	.	8C/	-re,	8e\L	-ius	8g/	-ius
!	!	!	!	!	!	!	!	!	!LO:SIC:v:t=custos b-	!
.	.	.	.	.	8C/	in	8f#X\J	in	8a\	in
!	!	!	!	!	!	!	!	!	!LO:LB:g=original	!
4GG/	.	4GG/	8r	8dd\L	4GG/	o-	4g\	o-	4b-\	o-
.	.	.	8gg\	8bb-X\J	.	.	.	.	.	.
4AA/	6	4AA/	16ff\LL	16aa\LL	4AA/	-re	8cny\L	-re	4cc,<\	-re
.	.	.	16gg\	16bb-\	.	.	.	.	.	.
!	!	!	!	!	!	!	!LO:TX:t=P:problem:kreska pseudotaktowa	!	!	!
.	.	.	16ee\	16gg\	.	.	8f#\J	.	.	.
!	!	!	!LO:TX:t=P:problem:kreska pseudotaktowa	!LO:TX:t=P:problem:kreska pseudotaktowa	!	!	!	!	!	!
.	.	.	16ff\JJ	16aa\JJ	.	.	.	.	.	.
=39-	=39-	=39-	=39-	=39-	=39-	=39-	=39-	=39-	=39-	=39-
2BB-/	.	2BB-/	4dd\	4ff\	16BB-/LL	me-	2fny\	me-	16dd\LL	me-
.	.	.	.	.	16AA/	.	.	.	16cc\	.
.	.	.	.	.	16BB-/	.	.	.	16dd\	.
.	.	.	.	.	16C/JJ	.	.	.	16eeny\JJ	.
.	.	.	8dd\L	8ff\L	4BB-/	.	.	.	4dd\	.
!	!	!	!LO:SIC:v:t=custos ff	!	!	!	!	!	!	!
.	.	.	8ee\J	8gg\J	.	.	.	.	.	.
!LO:TX:t=P:problem:mixed beam	!	!LO:TX:t=P:problem:mixed beam	!LO:LB:g=original	!LO:LB:g=original	!	!	!	!	!	!
8FF/L	.	8FF/L	8ff\L	8aa\L	8FF/	-o	4f\	-o	4cc\	-o
*	*	*	*	*	*	*ij	*	*	*	*
8F\	.	8F\	8cc\J	8aa\J	8F\	in	.	.	.	.
!	!	!	!LO:TX:t=P:problem:kreska pseudotaktowa	!	!	!	!LO:TX:t=P:problem:kreska pseudotaktowa	!	!	!
8Eny\	.	8Eny\	4cc\	16gg\LL	(16Eny\LL	o-	4r	.	4r,<	.
.	.	.	.	16aa\	16F\JJ	.	.	.	.	.
8D\J	.	8D\J	.	16ff\	16D\LL	-re	.	.	.	.
!	!	!	!	!LO:TX:t=P:problem:kreska pseudotaktowa	!	!	!	!	!	!
.	.	.	.	16gg\JJ	16E\JJ)	.	.	.	.	.
=40-	=40-	=40-	=40-	=40-	=40-	=40-	=40-	=40-	=40-	=40-
2C/	8 6	2C/	4cc\	4ee\	2C/	me-	8r	.	8r	.
*	*	*	*	*	*	*	*	*ij	*	*
.	.	.	.	.	.	.	8a\	in	8cc\	in
.	7 5	.	4r	4r	.	.	16g\LL	o-	16b-\LL	o-
.	.	.	.	.	.	.	16a\JJ	.	16cc\JJ	.
.	.	.	.	.	.	.	16f\LL	-re	16a\LL	-re
.	.	.	.	.	.	.	16g\JJ	.	16b-\JJ	.
4.C/	.	4.C/	4r	4r	4.C/	-o	4e\	me-	4g/	me-
.	.	.	8r	8r	.	.	8e\	-o	8g/	-o
!LO:SIC:v:t=custos BB-	!	!	!LO:TX:t=P:problem:kreska pseudotaktowa	!LO:TX:t=P:problem:kreska pseudotaktowa	!	!	!LO:TX:t=P:problem:kreska pseudotaktowa	!	!	!
8AA/	.	8AA/	8cc\	8ccc\	8AA/	in	8f\	in	8a,<\	in
!LO:LB:g=original	!	!	!	!	!	!	!	!	!	!
=41-	=41-	=41-	=41-	=41-	=41-	=41-	=41-	=41-	=41-	=41-
2BB-/	6 5	2BB-/	4dd\	2gg\	4BB-/	o-	4f\	o-	4g/	o-
.	.	.	4dd\	.	4BB-/	-re	4f\	-re	4g/	-re
!	!	!LO:TX:t=P:problem:kreska pseudotaktowa	!	!	!	!	!	!	!	!
2C/	4	2C/	2cc\	2gg\	2C/	me-	4.f\	me-	2g,</	me-
!	!	!	!	!	!	!	!LO:TX:t=P:problem:kreska pseudotaktowa	!	!	!
.	3	.	.	.	.	.	8e\	.	.	.
=42-	=42-	=42-	=42-	=42-	=42-	=42-	=42-	=42-	=42-	=42-
4FF/	.	4FF/	8cc\L	4ff\	4FF/	-o	4f\	-o	4a\	-o
*	*	*	*	*	*	*Xij	*	*Xij	*	*
.	.	.	8cc\J	.	.	.	.	.	.	.
8BB-/L	.	8BB-/L	8dd\L	4r	4r	.	4r	.	4r	.
8C/J	.	8C/J	16cc\L	.	.	.	.	.	.	.
.	.	.	16b-y\JJ	.	.	.	.	.	.	.
4D\	5	4D\	8a/L	8r	2r	.	2r	.	2r	.
.	6	.	8b-/	8ff\	.	.	.	.	.	.
8E-X\L	.	8E-X\L	8g/	8gg\L	.	.	.	.	.	.
!LO:TX:t=P:problem:kreska pseudotaktowa	!	!LO:SIC:v:t=custos G	!LO:TX:t=P:problem:kreska pseudotaktowa	!	!	!	!	!	!	!
8F\J	.	8F\J	8a/J	16ff\L	.	.	.	.	.	.
!	!	!	!	!LO:TX:t=P:problem:kreska pseudotaktowa	!	!	!	!	!	!
!	!	!	!	!LO:TX:t=P:problem:♭ above	!	!	!	!	!	!
.	.	.	.	16ee-X\JJ	.	.	.	.	.	.
!	!	!LO:LB:g=original	!	!	!	!	!	!	!	!
=43-	=43-	=43-	=43-	=43-	=43-	=43-	=43-	=43-	=43-	=43-
!	!	!	!	!	!LO:TX:a:t=5	!	!	!	!LO:TX:b:i:t=5.	!
4G\	.	4G\	16b-\LL	16dd\LL	00r	.	00r	.	00r	.
!	!	!	!	!LO:TX:t=P:problem:♭ above	!	!	!	!	!	!
.	.	.	16cc\	16ee-X\	.	.	.	.	.	.
.	.	.	16b-\	16dd\	.	.	.	.	.	.
!	!	!	!	!LO:TX:t=P:problem:♭ above	!	!	!	!	!	!
.	.	.	16cc\JJ	16ee-X\JJ	.	.	.	.	.	.
8D\L	.	8D\L	8dd\L	8ff\L	.	.	.	.	.	.
!LO:TX:t=P:problem:♭ above	!	!	!	!LO:TX:t=P:problem:♭ above	!	!	!	!	!	!
8E-X\J	.	8E-X\J	16cc\L	16ee-X\L	.	.	.	.	.	.
.	.	.	16b-\JJ	16dd\JJ	.	.	.	.	.	.
4F\	.	4F\	16a/LL	16cc\LL	.	.	.	.	.	.
.	.	.	16b-/	16dd\	.	.	.	.	.	.
.	.	.	16a/	16cc\	.	.	.	.	.	.
.	.	.	16b-/JJ	16dd\JJ	.	.	.	.	.	.
!LO:TX:t=P:problem:kreska pseudotaktowa	!	!LO:TX:t=P:problem:kreska pseudotaktowa	!	!	!	!	!	!	!	!
[4C/	.	[4C/	16cc\LL	16ee-X\LL	.	.	.	.	.	.
.	.	.	16dd\	16ff\	.	.	.	.	.	.
.	.	.	16cc\	16ee-\	.	.	.	.	.	.
!	!	!	!LO:TX:t=P:problem:kreska pseudotaktowa	!LO:TX:t=P:problem:kreska pseudotaktowa	!	!	!	!	!	!
.	.	.	16dd\JJ	16ff\JJ	.	.	.	.	.	.
=44-	=44-	=44-	=44-	=44-	=44-	=44-	=44-	=44-	=44-	=44-
!LO:TX:t=P:problem:mixed beam	!	!LO:TX:t=P:problem:mixed beam	!	!	!	!	!	!	!	!
8C\L]	.	8C\L]	8ee-X\L	8gg\L	.	.	.	.	.	.
8F\	.	8F\	16dd\L	16ff\L	.	.	.	.	.	.
!	!	!	!	!LO:TX:t=P:problem:♭ above	!	!	!	!	!	!
.	.	.	16cc\JJ	16ee-X\JJ	.	.	.	.	.	.
8G\	4	8G\	8.cc\L	16dd\LL	.	.	.	.	.	.
.	.	.	.	16cc\	.	.	.	.	.	.
8GG/J	3	8GG/J	.	16dd\	.	.	.	.	.	.
!	!	!	!LO:N:acc=#	!LO:TX:t=P:problem:♭ above	!	!	!	!	!	!
.	.	.	16bn\Jk	16ee-X\JJ	.	.	.	.	.	.
4C/	.	4C/	8cc\L	4cc\	.	.	.	.	.	.
.	.	.	8g\J	.	.	.	.	.	.	.
!	!	!	!	!LO:TX:t=P:problem:kreska pseudotaktowa	!	!	!	!	!	!
8F\L	.	8F\L	8a/L	4r	.	.	.	.	.	.
!LO:TX:t=P:problem:kreska pseudotaktowa	!	!LO:TX:t=P:problem:kreska pseudotaktowa	!	!	!	!	!	!	!	!
8G\J	.	8G\J	16g/L	.	.	.	.	.	.	.
!	!	!	!LO:TX:t=P:problem:kreska pseudotaktowa	!	!	!	!	!	!	!
.	.	.	16f/JJ	.	.	.	.	.	.	.
=45-	=45-	=45-	=45-	=45-	=45-	=45-	=45-	=45-	=45-	=45-
!LO:TX:t=P:problem:mixed beam	!	!LO:TX:t=P:problem:mixed beam	!	!	!	!	!	!	!	!
8A\L	5	8A\L	8e/L	8r	.	.	.	.	.	.
8AA/	6	8AA/	8f/	8cc\	.	.	.	.	.	.
8BB-/	.	8BB-/	8d/	8dd\L	.	.	.	.	.	.
8C/J	.	8C/J	8e/J	16cc\L	.	.	.	.	.	.
.	.	.	.	16b-y\JJ	.	.	.	.	.	.
4D/	.	4D/	16f/LL	16a/LL	.	.	.	.	.	.
.	.	.	16g/	16b-/	.	.	.	.	.	.
.	.	.	16f/	16a/	.	.	.	.	.	.
.	.	.	16g/JJ	16b-/JJ	.	.	.	.	.	.
8AA/L	6	8AA/L	8a/L	8cc\L	.	.	.	.	.	.
8BB-/J	.	8BB-/J	16g/L	16b-\L	.	.	.	.	.	.
!	!	!	!LO:SIC:v:t=custos e	!LO:TX:t=P:problem:kreska pseudotaktowa	!	!	!	!	!	!
.	.	.	16f/JJ	16a\JJ	.	.	.	.	.	.
!	!	!	!LO:LB:g=original	!	!	!	!	!	!	!
=46-	=46-	=46-	=46-	=46-	=46-	=46-	=46-	=46-	=46-	=46-
4C/	.	4C/	16e/LL	16g/LL	.	.	.	.	.	.
.	.	.	16f/	16a/	.	.	.	.	.	.
.	.	.	16e/	16g/	.	.	.	.	.	.
.	.	.	16f/JJ	16a/JJ	.	.	.	.	.	.
8GG/L	.	8GG/L	8g/L	8b-/L	.	.	.	.	.	.
8AA/J	.	8AA/J	16f/L	16a/L	.	.	.	.	.	.
.	.	.	16e/JJ	16g/JJ	.	.	.	.	.	.
4BB-/	.	4BB-/	8d/L	8f/L	.	.	.	.	.	.
.	.	.	8e/J	8g/J	.	.	.	.	.	.
4FF/	.	4FF/	2f/	4a/	.	.	.	.	.	.
!	!	!	!	!LO:LB:g=original	!	!	!	!	!	!
=47-	=47-	=47-	=47-	=47-	=47-	=47-	=47-	=47-	=47-	=47-
!	!	!	!	!	!LO:TX:t=P:problem:kreska pseudotaktowa	!	!LO:TX:t=P:problem:kreska pseudotaktowa	!	!	!
2C/	.	2C/	.	4.g/	1r	.	1r	.	1r	.
.	.	.	4e/	.	.	.	.	.	.	.
.	.	.	.	8g/	.	.	.	.	.	.
2FF;/	.	2FF/	2f/	2a/	.	.	.	.	.	.
=48||	=48-	=48||	=48||	=48||	=48-	=48-	=48-	=48-	=48-	=48-
!	!	!LO:TX:a:t=Cant Solo	!	!	!	!	!	!	!	!
!LO:TX:b:t=In domino	!	!LO:TX:b:i:t=In Domino	!LO:TX:b:i:t=In Domino.	!LO:TX:b:i:t=In Domino.	!LO:TX:a:t=26.	!	!	!	!	!
2F\	.	2F\	00r	00r	00r	.	00r	.	4r	.
.	.	.	.	.	.	.	.	.	4f/	In
2E\	6	2E\	.	.	.	.	.	.	4.cc\	Do-
.	.	.	.	.	.	.	.	.	8cc,<\	-mi-
=49-	=49-	=49-	=49-	=49-	=49-	=49-	=49-	=49-	=49-	=49-
2E\	.	2E\	.	.	.	.	.	.	4cc\	-no
.	.	.	.	.	.	.	.	.	8r	.
.	.	.	.	.	.	.	.	.	8cc\	lau-
!LO:TX:t=P:problem:kreska pseudotaktowa	!	!	!	!	!	!	!	!	!	!
2D/	7	2D/	.	.	.	.	.	.	8.ff\L	-da-
.	.	.	.	.	.	.	.	.	16ee\Jk	.
.	.	.	.	.	.	.	.	.	16dd\LL	.
.	.	.	.	.	.	.	.	.	16cc\	.
!	!	!	!	!	!	!	!	!	!LO:N:acc=#	!
.	.	.	.	.	.	.	.	.	16bn\	.
!	!	!	!	!	!	!	!	!	!LO:SIC:v:t=custos b#	!
.	.	.	.	.	.	.	.	.	16a,<\JJ	.
!	!	!	!	!	!	!	!	!	!LO:LB:g=original	!
=50-	=50-	=50-	=50-	=50-	=50-	=50-	=50-	=50-	=50-	=50-
!	!	!LO:TX:t=P:problem:kreska pseudotaktowa	!	!	!	!	!	!	!LO:N:acc=#	!
1D	#6	1D	.	.	.	.	.	.	8.bn\	.
.	.	.	.	.	.	.	.	.	16b\	-bi-
.	.	.	.	.	.	.	.	.	4b\	-tur
.	.	.	.	.	.	.	.	.	4b\	a-
.	.	.	.	.	.	.	.	.	8b\	-ni-
.	.	.	.	.	.	.	.	.	8cc,<\	-ma
=51-	=51-	=51-	=51-	=51-	=51-	=51-	=51-	=51-	=51-	=51-
2C/	.	2C/	.	.	.	.	.	.	4cc\	me-
.	.	.	.	.	.	.	.	.	4cc\	-a
2E\	6	2E\	.	.	.	.	.	.	8r	.
.	.	.	.	.	.	.	.	.	4cc\	au-
.	.	.	.	.	.	.	.	.	8b-y,<\	-di-
=52-	=52-	=52-	=52-	=52-	=52-	=52-	=52-	=52-	=52-	=52-
2E\	6 -5	2E\	00r	00r	00r	.	00r	.	4.b-\	-ant
.	.	.	.	.	.	.	.	.	8a\	man-
2F\	.	2F\	.	.	.	.	.	.	4a\	-sue-
.	.	.	.	.	.	.	.	.	4a,<\	-ti
=53-	=53-	=53-	=53-	=53-	=53-	=53-	=53-	=53-	=53-	=53-
[2AA/	6	[2AA/	.	.	.	.	.	.	8r	.
*	*	*	*	*	*	*	*	*	*	*ij
.	.	.	.	.	.	.	.	.	4ff\	au-
.	.	.	.	.	.	.	.	.	8ee-X\	-di-
2AA/]	6 -5	2AA/]	.	.	.	.	.	.	4.ee-\	-ant
.	.	.	.	.	.	.	.	.	8dd,<\	man-
=54-	=54-	=54-	=54-	=54-	=54-	=54-	=54-	=54-	=54-	=54-
2BB-/	.	2BB-/	.	.	.	.	.	.	4dd\	-sue-
.	.	.	.	.	.	.	.	.	4dd\	-ti
*	*	*	*	*	*	*	*	*	*	*Xij
4B-\	.	4B-\	.	.	.	.	.	.	16b-\LL	et
.	.	.	.	.	.	.	.	.	16cc\JJ	.
.	.	.	.	.	.	.	.	.	16dd\LL	le-
.	.	.	.	.	.	.	.	.	16ee-y\JJ	.
!	!	!LO:TX:t=P:problem:kreska pseudotaktowa	!	!	!	!	!	!	!	!
4A\	6	4A\	.	.	.	.	.	.	16ff\LL	-ten-
.	.	.	.	.	.	.	.	.	16cc\	.
.	.	.	.	.	.	.	.	.	16dd\	.
.	.	.	.	.	.	.	.	.	16a,<\JJ	.
!LO:LB:g=original	!	!	!	!	!	!	!	!	!	!
=55-	=55-	=55-	=55-	=55-	=55-	=55-	=55-	=55-	=55-	=55-
2G\	7	2G\	.	.	.	.	.	.	16b-\LL	.
.	.	.	.	.	.	.	.	.	16cc\	.
.	.	.	.	.	.	.	.	.	16dd\	.
.	.	.	.	.	.	.	.	.	16ee-X\JJ	.
.	.	.	.	.	.	.	.	.	16g\LL	.
.	6	.	.	.	.	.	.	.	16a\	.
.	.	.	.	.	.	.	.	.	16b-\	.
!	!	!	!	!	!	!	!	!	!LO:SIC:v:t=custos a	!
.	.	.	.	.	.	.	.	.	16cc\JJ	.
!	!	!	!	!	!	!	!	!	!LO:LB:g=original	!
4F\	.	4F\	.	.	.	.	.	.	16a\LL	.
.	.	.	.	.	.	.	.	.	16b-\	.
.	.	.	.	.	.	.	.	.	16cc\	.
.	.	.	.	.	.	.	.	.	16dd\JJ	.
4E\	6	4E\	.	.	.	.	.	.	16g\LL	.
.	.	.	.	.	.	.	.	.	16a\	.
.	.	.	.	.	.	.	.	.	16b-\	.
.	.	.	.	.	.	.	.	.	16cc,<\JJ	.
=56-	=56-	=56-	=56-	=56-	=56-	=56-	=56-	=56-	=56-	=56-
2D/	7	2D/	00r	00r	00r	.	0r	.	16f/LL	.
.	.	.	.	.	.	.	.	.	16g/	.
.	.	.	.	.	.	.	.	.	16a/	.
.	.	.	.	.	.	.	.	.	16b-/JJ	.
.	6	.	.	.	.	.	.	.	16d/LL	.
.	.	.	.	.	.	.	.	.	16e/	.
.	.	.	.	.	.	.	.	.	16f/	.
.	.	.	.	.	.	.	.	.	16g/JJ	.
2C/	.	2C/	.	.	.	.	.	.	8e/	.
.	.	.	.	.	.	.	.	.	8c/	-tur
.	.	.	.	.	.	.	.	.	16e/LL	et
.	.	.	.	.	.	.	.	.	16f/JJ	.
.	.	.	.	.	.	.	.	.	16g/LL	le-
.	.	.	.	.	.	.	.	.	16a/JJ,<	.
=57-	=57-	=57-	=57-	=57-	=57-	=57-	=57-	=57-	=57-	=57-
2GG/	.	2GG/	.	.	.	.	.	.	16b-\LL	-ten-
.	.	.	.	.	.	.	.	.	16a\	.
.	.	.	.	.	.	.	.	.	16g\	.
.	.	.	.	.	.	.	.	.	16a\JJ	.
.	.	.	.	.	.	.	.	.	16b-\LL	.
.	.	.	.	.	.	.	.	.	16cc\	.
.	.	.	.	.	.	.	.	.	16dd\	.
.	.	.	.	.	.	.	.	.	16ee\JJ	.
!LO:TX:t=P:problem:kreska pseudotaktowa	!	!	!	!	!	!	!	!	!	!
2D/	6	2D/	.	.	.	.	.	.	16ff\LL	.
.	.	.	.	.	.	.	.	.	16dd\	.
.	.	.	.	.	.	.	.	.	16ff\	.
.	.	.	.	.	.	.	.	.	16ee-X\JJ	.
.	.	.	.	.	.	.	.	.	16dd\LL	.
.	.	.	.	.	.	.	.	.	16cc\	.
.	.	.	.	.	.	.	.	.	16b-\	.
.	.	.	.	.	.	.	.	.	16a,<\JJ	.
!	!	!LO:LB:g=original	!	!	!	!	!	!	!	!
=58-	=58-	=58-	=58-	=58-	=58-	=58-	=58-	=58-	=58-	=58-
!	!	!	!	!	!	!	!	!	!LO:TX:a:t=P:problem:mixed beam	!
2E-X\	5	2E-X\	.	.	.	.	1r	.	16g/LL	.
.	.	.	.	.	.	.	.	.	16gg\	.
.	.	.	.	.	.	.	.	.	16ff\	.
.	.	.	.	.	.	.	.	.	16gg\JJ	.
.	6	.	.	.	.	.	.	.	16ee-X\LL	.
.	.	.	.	.	.	.	.	.	16dd\	.
.	.	.	.	.	.	.	.	.	16cc\	.
.	.	.	.	.	.	.	.	.	16b-\JJ	.
4F\	.	4F\	.	.	.	.	.	.	8a\	.
.	.	.	.	.	.	.	.	.	8f/	-tur
8D\L	.	8D\L	.	.	.	.	.	.	8ff\	et
!LO:TX:t=P:problem:♭ above	!	!LO:TX:t=P:problem:♭ above	!	!	!	!	!	!	!	!
8E-X\J	.	8E-X\J	.	.	.	.	.	.	16ee-X\LL	le-
!	!	!	!	!	!	!	!	!	!LO:SIC:v:t=custos c	!
.	.	.	.	.	.	.	.	.	16dd,<\JJ	.
!	!	!	!	!	!	!	!	!	!LO:LB:g=original	!
=59-	=59-	=59-	=59-	=59-	=59-	=59-	=59-	=59-	=59-	=59-
2F\	4	2F\	.	.	.	.	2r	.	2cc\	-ten-
.	3	.	.	.	.	.	.	.	.	.
2BB-/	.	2BB-/	.	.	.	.	4r	.	2b-\	-tur
.	.	.	.	.	.	.	4d\	In	.	.
=60-	=60-	=60-	=60-	=60-	=60-	=60-	=60-	=60-	=60-	=60-
!	!	!	!	!	!	!	!	!	!LO:TX:a:t=24	!
1AA	6	1AA	00r	00r	00r	.	4.f\	Do-	00r	.
.	.	.	.	.	.	.	8f\	-mi-	.	.
.	.	.	.	.	.	.	4f\	-no	.	.
.	.	.	.	.	.	.	8r	.	.	.
.	.	.	.	.	.	.	8f\	lau-	.	.
!	!	!	!	!	!	!	!LO:LB:g=original	!	!	!
=61-	=61-	=61-	=61-	=61-	=61-	=61-	=61-	=61-	=61-	=61-
2GG/	7	2GG/	.	.	.	.	8.b-\L	-da-	.	.
.	.	.	.	.	.	.	16a\Jk	.	.	.
.	.	.	.	.	.	.	16g\LL	.	.	.
.	.	.	.	.	.	.	16f\	.	.	.
.	.	.	.	.	.	.	16e\	.	.	.
.	.	.	.	.	.	.	16d\JJ	.	.	.
[2GG/	6	[2GG/	.	.	.	.	8.e\	.	.	.
.	.	.	.	.	.	.	16e\	-bi-	.	.
!	!	!	!	!	!	!	!LO:TX:t=P:problem:kreska pseudotaktowa	!	!	!
.	.	.	.	.	.	.	4e\	-tur	.	.
=62-	=62-	=62-	=62-	=62-	=62-	=62-	=62-	=62-	=62-	=62-
2GG/]	.	2GG/]	.	.	.	.	4e\	a-	.	.
.	.	.	.	.	.	.	8e\	-ni-	.	.
.	.	.	.	.	.	.	8f\	-ma	.	.
2FF/	.	2FF/	.	.	.	.	4f\	me-	.	.
!	!	!	!	!	!	!	!LO:TX:t=P:problem:kreska pseudotaktowa	!	!	!
.	.	.	.	.	.	.	4f\	-a	.	.
=63-	=63-	=63-	=63-	=63-	=63-	=63-	=63-	=63-	=63-	=63-
1F	.	1F	.	.	.	.	4.a\	au-	.	.
.	.	.	.	.	.	.	8a\	-di-	.	.
.	.	.	.	.	.	.	4a\	-ant	.	.
.	.	.	.	.	.	.	16r	.	.	.
.	.	.	.	.	.	.	16cc\LL	man-	.	.
.	.	.	.	.	.	.	16b-\	.	.	.
!	!	!	!	!	!	!	!LO:TX:t=P:problem:kreska pseudotaktowa	!	!	!
.	.	.	.	.	.	.	16a\JJ	.	.	.
=64-	=64-	=64-	=64-	=64-	=64-	=64-	=64-	=64-	=64-	=64-
!LO:N:acc=#	!	!LO:N:acc=#	!	!	!	!	!	!	!	!
2BBn/	6 -5	2BBn/	00r	00r	00r	.	4.g\	-sue-	00r	.
.	.	.	.	.	.	.	16a\LL	.	.	.
.	.	.	.	.	.	.	16b-\JJ	.	.	.
[2C/	.	[2C/	.	.	.	.	2g\	-ti	.	.
=65-	=65-	=65-	=65-	=65-	=65-	=65-	=65-	=65-	=65-	=65-
4C/]	.	4C/]	.	.	.	.	16g\LL	et	.	.
.	.	.	.	.	.	.	16e\JJ	.	.	.
.	.	.	.	.	.	.	16f\LL	lae-	.	.
.	.	.	.	.	.	.	16g\JJ	.	.	.
4AA/	.	4AA/	.	.	.	.	16a\LL	-ten-	.	.
.	.	.	.	.	.	.	16f\	.	.	.
.	.	.	.	.	.	.	16g\	.	.	.
.	.	.	.	.	.	.	16a\JJ	.	.	.
4BB-y/	.	4BB-y/	.	.	.	.	16d\LL	.	.	.
.	.	.	.	.	.	.	16e\	.	.	.
.	.	.	.	.	.	.	16f\	.	.	.
.	.	.	.	.	.	.	16d\JJ	.	.	.
!	!	!LO:TX:t=P:problem:kreska pseudotaktowa	!	!	!	!	!	!	!	!
4GG/	.	4GG/	.	.	.	.	16b-X\LL	.	.	.
.	.	.	.	.	.	.	16a\	.	.	.
.	.	.	.	.	.	.	16g\	.	.	.
!	!	!	!	!	!	!	!LO:SIC:v:t=custos e	!	!	!
.	.	.	.	.	.	.	16b-\JJ	.	.	.
!	!	!	!	!	!	!	!LO:LB:g=original	!	!	!
=66-	=66-	=66-	=66-	=66-	=66-	=66-	=66-	=66-	=66-	=66-
2C/	.	2C/	.	.	.	.	16e\LL	.	.	.
.	.	.	.	.	.	.	16f\	.	.	.
.	.	.	.	.	.	.	16g\	.	.	.
.	.	.	.	.	.	.	16e\JJ	.	.	.
.	.	.	.	.	.	.	16cc\LL	.	.	.
.	.	.	.	.	.	.	16a\	.	.	.
.	.	.	.	.	.	.	16b-\	.	.	.
.	.	.	.	.	.	.	16g\JJ	.	.	.
2F\	.	2F\	.	.	.	.	16a\LL	.	.	.
.	.	.	.	.	.	.	16f\	.	.	.
.	.	.	.	.	.	.	16g\	.	.	.
.	.	.	.	.	.	.	16e\JJ	.	.	.
.	.	.	.	.	.	.	16f\LL	.	.	.
.	.	.	.	.	.	.	16d\	.	.	.
.	.	.	.	.	.	.	16e-X\	.	.	.
!	!	!	!	!	!	!	!LO:TX:t=P:problem:kreska pseudotaktowa	!	!	!
.	.	.	.	.	.	.	16c\JJ	.	.	.
=67-	=67-	=67-	=67-	=67-	=67-	=67-	=67-	=67-	=67-	=67-
4BB-/	.	4BB-/	.	.	.	.	16d\LL	.	.	.
.	.	.	.	.	.	.	16f\	.	.	.
.	.	.	.	.	.	.	16g\	.	.	.
.	.	.	.	.	.	.	16a\JJ	.	.	.
4GG/	.	4GG/	.	.	.	.	16b-\LL	.	.	.
.	.	.	.	.	.	.	16a\	.	.	.
.	.	.	.	.	.	.	16g\	.	.	.
.	.	.	.	.	.	.	16a\JJ	.	.	.
2AA/	6 4	2AA/	.	.	.	.	16f\LL	.	.	.
.	.	.	.	.	.	.	16a\	.	.	.
.	.	.	.	.	.	.	16g\	.	.	.
.	.	.	.	.	.	.	16f\JJ	.	.	.
.	5 3	.	.	.	.	.	8eny\L	.	.	.
!	!	!	!	!	!	!	!LO:TX:t=P:problem:kreska pseudotaktowa	!	!	!
.	.	.	.	.	.	.	8d\J	.	.	.
=68-	=68-	=68-	=68-	=68-	=68-	=68-	=68-	=68-	=68-	=68-
4D/	.	4D/	0r	0r	00r	.	8d\	-tur	00r	.
.	.	.	.	.	.	.	8d\	le-	.	.
!LO:N:acc=#	!	!LO:N:acc=#	!	!	!	!	!	!	!	!
4BBn/	6	4BBn/	.	.	.	.	16g\LL	-ten-	.	.
.	.	.	.	.	.	.	16a\	.	.	.
.	.	.	.	.	.	.	16f\	.	.	.
.	.	.	.	.	.	.	16g\JJ	.	.	.
4C/	5	4C/	.	.	.	.	8e\L	.	.	.
.	.	.	.	.	.	.	16a\L	.	.	.
.	6	.	.	.	.	.	16b-\JJ	.	.	.
4EE/	6	4EE/	.	.	.	.	16cc\LL	.	.	.
.	.	.	.	.	.	.	16a\	.	.	.
!	!	!	!	!	!	!	!LO:TX:t=P:problem:♭ above	!	!	!
.	.	.	.	.	.	.	16b-X\	.	.	.
!	!	!	!	!	!	!	!LO:TX:t=P:problem:kreska pseudotaktowa	!	!	!
.	.	.	.	.	.	.	16g\JJ	.	.	.
=69-	=69-	=69-	=69-	=69-	=69-	=69-	=69-	=69-	=69-	=69-
2FF/	.	2FF/	.	.	.	.	16a\LL	.	.	.
.	.	.	.	.	.	.	16c\	.	.	.
.	.	.	.	.	.	.	16d\	.	.	.
.	.	.	.	.	.	.	16e\JJ	.	.	.
.	.	.	.	.	.	.	16f\LL	.	.	.
.	.	.	.	.	.	.	16g\	.	.	.
!	!	!	!	!	!	!	!LO:TX:t=P:problem:♭ above	!	!	!
.	.	.	.	.	.	.	16e-X\	.	.	.
.	.	.	.	.	.	.	16f\JJ	.	.	.
4BB-y/	.	4BB-y/	.	.	.	.	16d\LL	.	.	.
.	.	.	.	.	.	.	16e-\	.	.	.
.	.	.	.	.	.	.	16f\	.	.	.
.	.	.	.	.	.	.	16g\JJ	.	.	.
4AA/	6	4AA/	.	.	.	.	16a\LL	.	.	.
.	.	.	.	.	.	.	16b-\	.	.	.
.	.	.	.	.	.	.	16cc\	.	.	.
.	.	.	.	.	.	.	16dd\JJ	.	.	.
!	!	!	!	!	!	!	!LO:LB:g=original	!	!	!
=70-	=70-	=70-	=70-	=70-	=70-	=70-	=70-	=70-	=70-	=70-
2C/	4	2C/	2r	2r	.	.	16g\LL	.	.	.
.	.	.	.	.	.	.	16f\	.	.	.
.	.	.	.	.	.	.	16g\	.	.	.
.	.	.	.	.	.	.	16a\JJ	.	.	.
.	3	.	.	.	.	.	8g\L	.	.	.
.	.	.	.	.	.	.	8f\J	.	.	.
4.FF/	.	4.FF/	8r	8r	.	.	4f\	-tur	.	.
.	.	.	16ff\LL	16aa\LL	.	.	.	.	.	.
.	.	.	16gg\JJ	16bb-\JJ	.	.	.	.	.	.
!	!	!	!	!	!	!	!LO:TX:t=P:problem:kreska pseudotaktowa	!	!	!
.	.	.	8aa\L	8ccc\L	.	.	4r	.	.	.
!LO:TX:t=P:problem:kreska pseudotaktowa	!	!LO:TX:t=P:problem:kreska pseudotaktowa	!	!	!	!	!	!	!	!
8BB-/	.	8BB-/	16gg\L	16bb-\L	.	.	.	.	.	.
!	!	!	!LO:TX:t=P:problem:kreska pseudotaktowa	!LO:TX:t=P:problem:kreska pseudotaktowa	!	!	!	!	!	!
.	.	.	16ff\JJ	16aa\JJ	.	.	.	.	.	.
=71-	=71-	=71-	=71-	=71-	=71-	=71-	=71-	=71-	=71-	=71-
4.C/	.	4.C/	8ee\L	8gg\L	.	.	00r	.	.	.
.	.	.	16cc\L	16ee\L	.	.	.	.	.	.
.	.	.	16dd\JJ	16ff\JJ	.	.	.	.	.	.
.	.	.	8ee\L	8gg\L	.	.	.	.	.	.
8F\	.	8F\	16dd\L	16ff\L	.	.	.	.	.	.
.	.	.	16cc\JJ	16ee\JJ	.	.	.	.	.	.
!	!	!	!LO:N:acc=#	!	!	!	!	!	!	!
8G\L	#	8G\L	8bn/L	16dd\LL	.	.	.	.	.	.
.	.	.	.	16dd\	.	.	.	.	.	.
8F\	.	8F\	8a/J	16ee\	.	.	.	.	.	.
.	.	.	.	16ff\JJ	.	.	.	.	.	.
8Eny\	.	8Eny\	16g/LL	8gg\L	.	.	.	.	.	.
.	.	.	16g/	.	.	.	.	.	.	.
!LO:SIC:v:t=custos C 	!	!	!	!LO:TX:t=P:problem:kreska pseudotaktowa	!	!	!	!	!	!
8D\J	.	8D\J	16a/	8ff\J	.	.	.	.	.	.
!	!	!	!LO:TX:t=P:problem:kreska pseudotaktowa	!	!	!	!	!	!	!
.	.	.	16b/JJ	.	.	.	.	.	.	.
!LO:LB:g=original	!	!	!	!	!	!	!	!	!	!
=72-	=72-	=72-	=72-	=72-	=72-	=72-	=72-	=72-	=72-	=72-
8C\L	.	8C\L	8cc\L	16ee\LL	0r	.	.	.	00r	.
.	.	.	.	16ff\	.	.	.	.	.	.
8E\	6	8E\	8cc\	16gg\	.	.	.	.	.	.
.	.	.	.	16aa\JJ	.	.	.	.	.	.
8F\	.	8F\	8.cc\	8.dd\L	.	.	.	.	.	.
8G\J	.	8G\J	.	.	.	.	.	.	.	.
!	!	!	!LO:TX:t=P:problem:# above	!	!	!	!	!	!	!
!	!	!	!LO:N:acc=#	!	!	!	!	!	!	!
.	.	.	16bn\Jk	16dd\Jk	.	.	.	.	.	.
8C/L	.	8C/L	4cc\	16ee\LL	.	.	.	.	.	.
.	.	.	.	16gg\	.	.	.	.	.	.
8BB-/	.	8BB-/	.	16aa\	.	.	.	.	.	.
.	.	.	.	16bb-\JJ	.	.	.	.	.	.
8AA/	.	8AA/	16r	8ccc\L	.	.	.	.	.	.
.	.	.	16cc\LL	.	.	.	.	.	.	.
!	!	!LO:TX:t=P:problem:kreska pseudotaktowa	!	!	!	!	!	!	!	!
!LO:TX:t=P:problem:kreska pseudotaktowa	!	!LO:SIC:v:t=custos FF	!	!LO:TX:t=P:problem:kreska pseudotaktowa	!	!	!	!	!	!
8GG/J	.	8GG/J	16dd\	8bb-\J	.	.	.	.	.	.
!	!	!	!LO:TX:t=P:problem:kreska pseudotaktowa	!	!	!	!	!	!	!
.	.	.	16ee\JJ	.	.	.	.	.	.	.
!	!	!LO:LB:g=original	!	!	!	!	!	!	!	!
=73-	=73-	=73-	=73-	=73-	=73-	=73-	=73-	=73-	=73-	=73-
8FF/L	.	8FF/L	4.ff\	4aa\	.	.	.	.	.	.
8AA/	.	8AA/	.	.	.	.	.	.	.	.
!LO:TX:t=P:problem:# below	!	!LO:TX:t=P:problem:# below	!	!	!	!	!	!	!	!
!LO:N:acc=#	!	!LO:N:acc=#	!	!	!	!	!	!	!	!
8BBn/	5	8BBn/	.	4gg\	.	.	.	.	.	.
!LO:TX:t=P:problem:# below	!	!LO:TX:t=P:problem:# below	!	!	!	!	!	!	!	!
8C#X/J	.	8C#X/J	8ee\	.	.	.	.	.	.	.
8D/L	.	8D/L	4ee\	4.ff\	.	.	.	.	.	.
8C#/	.	8C#/	.	.	.	.	.	.	.	.
8BB/	.	8BB/	4dd\	.	.	.	.	.	.	.
!LO:TX:t=P:problem:kreska pseudotaktowa	!	!	!	!	!	!	!	!	!	!
8AA/J	.	8AA/J	.	8ff\	.	.	.	.	.	.
=74-	=74-	=74-	=74-	=74-	=74-	=74-	=74-	=74-	=74-	=74-
4GG/	6 5	4GG/	4.dd\	4.ee\	2r	.	.	.	.	.
4FF/	4	4FF/	.	.	.	.	.	.	.	.
.	3	.	8cc#X\	8ee\	.	.	.	.	.	.
!	!	!LO:TX:t=P:problem:kreska pseudotaktowa	!	!	!	!	!	!	!	!
2D/	-	2D/	2dd\	2ff\	8r	.	.	.	.	.
.	.	.	.	.	8D/	Ma-	.	.	.	.
.	.	.	.	.	8.F\	-gni-	.	.	.	.
!	!	!	!	!	!LO:SIC:v:t=custos A	!	!	!	!	!
.	.	.	.	.	16G\	-fi-	.	.	.	.
!	!	!	!	!	!LO:LB:g=original	!	!	!	!	!
=75-	=75-	=75-	=75-	=75-	=75-	=75-	=75-	=75-	=75-	=75-
2Cny/	6	2Cny/	00r	00r	8A\	-ca-	00r	.	.	.
.	.	.	.	.	8AA/	-te	.	.	.	.
.	.	.	.	.	8BB-/	me-	.	.	.	.
.	.	.	.	.	8C/	-cum	.	.	.	.
2BB-y/	7	2BB-y/	.	.	4.D/	do-	.	.	.	.
.	6	.	.	.	8C#X,</	-mi-	.	.	.	.
=76-	=76-	=76-	=76-	=76-	=76-	=76-	=76-	=76-	=76-	=76-
!LO:TX:t=P:problem:mixed beam	!	!LO:TX:t=P:problem:mixed beam	!	!	!	!	!	!	!	!
8AA/L	.	8AA/L	.	.	4C#y/	-num	.	.	00r	.
8A\	.	8A\	.	.	.	.	.	.	.	.
8G\	.	8G\	.	.	4r	.	.	.	.	.
8F\J	.	8A\J	.	.	.	.	.	.	.	.
!LO:TX:t=P:problem:kreska pseudotaktowa	!	!LO:TX:t=P:problem:kreska pseudotaktowa	!	!	!	!	!	!	!	!
2F\	.	2F\	.	.	8r	.	.	.	.	.
*	*	*	*	*	*	*ij	*	*	*	*
.	.	.	.	.	8F\	Ma-	.	.	.	.
.	.	.	.	.	8.A\	-gni-	.	.	.	.
.	.	.	.	.	16B-,<\	-fi-	.	.	.	.
=77-	=77-	=77-	=77-	=77-	=77-	=77-	=77-	=77-	=77-	=77-
2E\	6	2E\	.	.	8c\	-ca-	.	.	.	.
.	.	.	.	.	8Cny/	-te	.	.	.	.
.	.	.	.	.	8D/	me-	.	.	.	.
.	.	.	.	.	8E\	-cum	.	.	.	.
2D/	7	2D/	.	.	4.F\	do-	.	.	.	.
.	6	.	.	.	8E,<\	-mi-	.	.	.	.
=78-	=78-	=78-	=78-	=78-	=78-	=78-	=78-	=78-	=78-	=78-
2C/	.	2C/	.	.	8E\	-num	.	.	.	.
*	*	*	*	*	*	*Xij	*	*	*	*
.	.	.	.	.	8C/	et	.	.	.	.
.	.	.	.	.	8E\	ex	.	.	.	.
.	.	.	.	.	8F\	al-	.	.	.	.
2C/	.	2C/	.	.	16G\LL	-te-	.	.	.	.
.	.	.	.	.	16E\	.	.	.	.	.
.	.	.	.	.	16G\	.	.	.	.	.
.	.	.	.	.	16F\JJ	.	.	.	.	.
.	.	.	.	.	16E\LL	.	.	.	.	.
.	.	.	.	.	16C\	.	.	.	.	.
.	.	.	.	.	16G\	.	.	.	.	.
!	!	!	!	!	!LO:SIC:v:t=custos B-	!	!	!	!	!
.	.	.	.	.	16A,<\JJ	.	.	.	.	.
!	!	!	!	!	!LO:LB:g=original	!	!	!	!	!
=79-	=79-	=79-	=79-	=79-	=79-	=79-	=79-	=79-	=79-	=79-
2G\	.	2G\	00r	00r	16B-\LL	.	00r	.	.	.
.	.	.	.	.	16G\	.	.	.	.	.
.	.	.	.	.	16B-\	.	.	.	.	.
.	.	.	.	.	16A\JJ	.	.	.	.	.
!	!	!	!	!	!LO:TX:t=P:problem:mixedbeam	!	!	!	!	!
.	.	.	.	.	16G\LL	.	.	.	.	.
.	.	.	.	.	16GG/	.	.	.	.	.
.	.	.	.	.	16BB-/	.	.	.	.	.
.	.	.	.	.	16C/JJ	.	.	.	.	.
2D/	-	2D/	.	.	16D/LL	.	.	.	.	.
.	.	.	.	.	16C/	.	.	.	.	.
.	.	.	.	.	16D/	.	.	.	.	.
.	.	.	.	.	16E/JJ	.	.	.	.	.
.	.	.	.	.	16F\LL	.	.	.	.	.
.	.	.	.	.	16G\	.	.	.	.	.
.	.	.	.	.	16A\	.	.	.	.	.
.	.	.	.	.	16B-,<\JJ	.	.	.	.	.
=80-	=80-	=80-	=80-	=80-	=80-	=80-	=80-	=80-	=80-	=80-
2AA/	6	2AA/	.	.	8c\	.	.	.	00r	.
.	.	.	.	.	8c\	-mus	.	.	.	.
.	.	.	.	.	8.AA/	no-	.	.	.	.
.	.	.	.	.	16AA/	-men	.	.	.	.
2BB-/	.	2BB-/	.	.	8BB-/	e-	.	.	.	.
.	.	.	.	.	8C/	-ius	.	.	.	.
.	.	.	.	.	8D\	in	.	.	.	.
.	.	.	.	.	16C/LL	id	.	.	.	.
.	.	.	.	.	16BB-,</JJ	.	.	.	.	.
=81-	=81-	=81-	=81-	=81-	=81-	=81-	=81-	=81-	=81-	=81-
2C/	4	2C/	.	.	2C/	ip-	.	.	.	.
.	3	.	.	.	.	.	.	.	.	.
2FF/	.	2FF/	.	.	8FF/	-sum	.	.	.	.
.	.	.	.	.	8FF/	et	.	.	.	.
.	.	.	.	.	8AA/	ex	.	.	.	.
.	.	.	.	.	8BB-,</	al-	.	.	.	.
=82-	=82-	=82-	=82-	=82-	=82-	=82-	=82-	=82-	=82-	=82-
2FF/	.	2FF/	.	.	16C/LL	-te-	.	.	.	.
.	.	.	.	.	16AA/	.	.	.	.	.
.	.	.	.	.	16C/	.	.	.	.	.
.	.	.	.	.	16BB-/JJ	.	.	.	.	.
.	.	.	.	.	16AA/LL	.	.	.	.	.
.	.	.	.	.	16BB-/	.	.	.	.	.
.	.	.	.	.	16C/	.	.	.	.	.
.	.	.	.	.	16D/JJ	.	.	.	.	.
2C/	.	2C/	.	.	16E/LL	.	.	.	.	.
.	.	.	.	.	16C/	.	.	.	.	.
.	.	.	.	.	16E/	.	.	.	.	.
.	.	.	.	.	16D/JJ	.	.	.	.	.
.	.	.	.	.	16C/LL	.	.	.	.	.
.	.	.	.	.	16D/	.	.	.	.	.
.	.	.	.	.	16E/	.	.	.	.	.
!	!	!	!	!	!LO:TX:t=P:problem:kreska pseudotaktowa	!	!	!	!	!
!	!	!	!	!	!LO:SIC:v:t=custos G	!	!	!	!	!
.	.	.	.	.	16F/JJ	.	.	.	.	.
!	!	!	!	!	!LO:LB:g=original	!	!	!	!	!
=83-	=83-	=83-	=83-	=83-	=83-	=83-	=83-	=83-	=83-	=83-
!	!	!	!LO:SIC:v:t=custos dd	!LO:SIC:v:t=custos dd 	!	!	!	!	!	!
4GG/	.	4GG/	1r	1r	8G\	.	1r	.	.	.
.	.	.	.	.	8G\	-mus	.	.	.	.
4BB-/	6	4BB-/	.	.	8BB-/	no-	.	.	.	.
.	.	.	.	.	8BB-/	-men	.	.	.	.
!LO:TX:t=P:problem:kreska pseudotaktowa	!	!LO:TX:t=P:problem:kreska pseudotaktowa	!	!	!	!	!	!	!	!
2C/	-	2C/	.	.	8C/	e-	.	.	.	.
.	.	.	.	.	8D\	-ius	.	.	.	.
.	.	.	.	.	8E-X\	in	.	.	.	.
.	.	.	.	.	(16D/LL	id	.	.	.	.
.	.	.	.	.	16C/JJ)	.	.	.	.	.
!	!	!	!LO:PB:g=original	!LO:PB:g=original	!	!	!	!	!	!
=84-	=84-	=84-	=84-	=84-	=84-	=84-	=84-	=84-	=84-	=84-
2D/	4	2D/	2r	2r	(4D/	i-	2r	.	2r	.
.	3	.	.	.	4DD/)	.	.	.	.	.
4GG/	.	4GG/	4r	4r	4GG/	-psum	4r	.	4r	.
!	!	!	!LO:TX:t=P:problem:kreska pseudotaktowa	!LO:TX:t=P:problem:kreska pseudotaktowa	!	!	!LO:TX:t=P:problem:kreska pseudotaktowa	!	!	!
4G\	.	4G\	4dd\	4dd\	4G\	Ma-	4d\	ma-	4b-,<\	ma-
=85-	=85-	=85-	=85-	=85-	=85-	=85-	=85-	=85-	=85-	=85-
2F#X\	6	2F#X\	4.dd\	4.aa\	8.F#X\	-gni-	8.d\	-gni-	8.a\	-gni-
.	.	.	.	.	16F#\	-fi-	16d\	-fi-	16a\	-fi-
.	.	.	.	.	8F#\	-ca-	8d\	-ca-	8a\	-ca-
.	.	.	8dd\	8aa\	8F#\	-te	8d\	-te	8a\	-te
2G\	.	2G\	2dd\	2gg\	4G\	me-	4d\	me	4.b-\	me
!	!	!	!	!	!	!	!LO:TX:t=P:problem:kreska pseudotaktowa	!	!	!
.	.	.	.	.	4GG/	-cum	4g\	cum	.	.
.	.	.	.	.	.	.	.	.	8a,<\	cum
=86-	=86-	=86-	=86-	=86-	=86-	=86-	=86-	=86-	=86-	=86-
2D/	#	2D/	4.dd\	4.aa\	8.D/	do-	8.f#X\	Do-	8.a\	do-
.	.	.	.	.	16D/	-mi-	16f#\	-mi-	16a\	-mi-
.	.	.	.	.	8D/	-nu(m)	8f#\	-nu(m)	8a\	-num
*	*	*	*	*	*	*ij	*	*ij	*	*
.	.	.	8dd\	8dd\	8D/	Ma-	8f#\	ma-	8a\	ma-
8.BB-/L	.	8.BB-/L	4.ff\	8dd\L	8.BB-/	-gni-	8.b-\	-gni-	8.dd\	-gni-
.	.	.	.	8ee\	.	.	.	.	.	.
16C/K	.	16C/K	.	.	16C/	-fi-	16b-\	-fi-	16dd\	-fi-
8D/	.	8D/	.	8ff\	8D/	-ca-	8b-\	-ca-	8dd\	-ca-
!LO:TX:t=P:problem:kreska pseudotaktowa	!	!	!	!LO:TX:t=P:problem:kreska pseudotaktowa	!	!	!LO:TX:t=P:problem:kreska pseudotaktowa	!	!	!
8E/J	.	8E/J	8ff\	8gg\J	8Eny\	-te	8b-\	-te	8dd,<\	-te
=87-	=87-	=87-	=87-	=87-	=87-	=87-	=87-	=87-	=87-	=87-
4Fny\	.	4F\	4ff\	4aa\	4Fny\	me-	4a\	me	4cc\	me
!	!	!	!	!	!LO:SIC:v:t=custos F	!	!	!	!	!
4BB-/	.	4BB-/	8dd\L	8ff\L	4BB-/	-cum	4b-\	cum	4dd\	cu(m)
.	.	.	8ee\J	8gg\J	.	.	.	.	.	.
!	!	!LO:TX:t=P:problem:kreska pseudotaktowa	!	!	!LO:LB:g=original	!	!	!	!	!
2F\	.	2F\	4.ff\	4.aa\	4.F\	do-	4.a\	Do-	4.cc\	do-
!	!	!	!	!	!	!	!LO:SIC:v:t=custos a	!	!	!
.	.	.	8ff\	8aa\	8F\	-mi-	8a\	-mi-	8cc,<\	-mi-
!LO:LB:g=original	!	!	!	!	!	!	!LO:LB:g=original	!	!	!
=88-	=88-	=88-	=88-	=88-	=88-	=88-	=88-	=88-	=88-	=88-
1F	.	1F	1ff	1aa	4F\	-nu(m)	8a\	-nu(m)	8cc\	-num
*	*	*	*	*	*	*Xij	*	*Xij	*	*
.	.	.	.	.	.	.	8fny\	et	8a\	et
.	.	.	.	.	4r	.	8f\	ex-	8a\	ex
!	!	!	!	!	!	!	!	!	!LO:SIC:v:t=custos cc	!
.	.	.	.	.	.	.	8g\	-al-	8b-\	al-
!	!	!	!	!	!	!	!	!	!LO:LB:g=original	!
.	.	.	.	.	2r	.	16a\LL	-te-	16cc\LL	-te-
.	.	.	.	.	.	.	16f\	.	16a\	.
.	.	.	.	.	.	.	16a\	.	16cc\	.
.	.	.	.	.	.	.	16g\JJ	.	16b-\JJ	.
.	.	.	.	.	.	.	16f\LL	.	16a\LL	.
.	.	.	.	.	.	.	16g\	.	16b-\	.
.	.	.	.	.	.	.	16a\	.	16cc\	.
!	!	!	!	!	!	!	!LO:TX:t=P:problem:kreska pseudotaktowa	!	!	!
.	.	.	.	.	.	.	16b-\JJ	.	16dd,<\JJ	.
=89-	=89-	=89-	=89-	=89-	=89-	=89-	=89-	=89-	=89-	=89-
1C	-	1C	2ee-X\	2gg\	8r	.	4cc\	.	4ee-X\	-mus
.	.	.	.	.	8C/	et	.	.	.	.
.	.	.	.	.	8C/	ex	4cc\	-mus	4ee-\	et
.	.	.	.	.	8D/	al-	.	.	.	.
.	.	.	2ccny\	2ee-X\	16E-X/LL	-te-	2r	.	2r	.
.	.	.	.	.	16C/	.	.	.	.	.
.	.	.	.	.	16E-/	.	.	.	.	.
.	.	.	.	.	16D/JJ	.	.	.	.	.
.	.	.	.	.	16C/LL	.	.	.	.	.
.	.	.	.	.	16D/	.	.	.	.	.
.	.	.	.	.	16E-/	.	.	.	.	.
.	.	.	.	.	16F/JJ	.	.	.	.	.
=90-	=90-	=90-	=90-	=90-	=90-	=90-	=90-	=90-	=90-	=90-
1G	.	1G	8r	8r	4G\	.	1r	.	1r	.
.	.	.	8g/L	8b-\L	.	.	.	.	.	.
.	.	.	8g/	8b-\	4G\	-mus	.	.	.	.
.	.	.	8a/J	8cc\J	.	.	.	.	.	.
.	.	.	16b-y/LL	16dd\LL	4r	.	.	.	.	.
.	.	.	16g/	16b-\	.	.	.	.	.	.
.	.	.	16b-/	16dd\	.	.	.	.	.	.
.	.	.	16a/JJ	16cc\JJ	.	.	.	.	.	.
.	.	.	16g/LL	16b-\LL	8G\	ex	.	.	.	.
.	.	.	16a/	16cc\	.	.	.	.	.	.
.	.	.	16b-/	16dd\	8G\	al-	.	.	.	.
!	!	!	!LO:TX:t=P:problem:kreska pseudotaktowa	!LO:TX:t=P:problem:kreska pseudotaktowa	!	!	!	!	!	!
.	.	.	16cc/JJ	16ee\JJ	.	.	.	.	.	.
=91-	=91-	=91-	=91-	=91-	=91-	=91-	=91-	=91-	=91-	=91-
1D	-	1D	2dd\	2ff\	16D/LL	-te-	8r	.	8r	.
.	.	.	.	.	16C/	.	.	.	.	.
*	*	*	*	*	*	*	*	*ij	*	*
.	.	.	.	.	16D/	.	8d\	et	8f/	et
.	.	.	.	.	16Eny/JJ	.	.	.	.	.
.	.	.	.	.	8D/	.	8d\	ex-	8f/	ex
.	.	.	.	.	8D/	-m(us)	8e\	-al-	8g/	al-
.	.	.	4a/	2.ff\	4.D/	ex	16f\LL	-te-	16a/LL	-te-
.	.	.	.	.	.	.	16d\	.	16f/	.
.	.	.	.	.	.	.	16f\	.	16a/	.
.	.	.	.	.	.	.	16e\JJ	.	16g/JJ	.
.	.	.	4dd\	.	.	.	16d\LL	.	16f/LL	.
.	.	.	.	.	.	.	16e\	.	16g/	.
.	.	.	.	.	8D/	al-	16f\	.	16a/	.
!	!	!	!	!	!	!	!LO:TX:t=P:problem:kreska pseudotaktowa	!	!	!
.	.	.	.	.	.	.	16g\JJ	.	16b-,</JJ	.
!	!	!LO:LB:g=original	!	!	!	!	!	!	!	!
=92-	=92-	=92-	=92-	=92-	=92-	=92-	=92-	=92-	=92-	=92-
4AA/	6	4AA/	4cc\	.	8AA/	-te-	8a\	.	8cc\	.
.	.	.	.	.	8AA/	-mus	8a\	-mus	8cc\	-mus
*	*	*	*	*	*	*	*	*Xij	*	*
4BB-/	.	4BB-/	4r	4dd\	8BB-/	no-	8g\	no-	8b-\	no-
.	.	.	.	.	8BB-/	-men	8f\	-men	8a\	-men
!	!	!	!LO:TX:t=P:problem:kreska pseudotaktowa	!	!LO:LB:g=original	!	!	!	!	!
4C/	.	4C/	2cc\	4ee\	8C/	e-	8e\	e-	8g\	e-
.	.	.	.	.	8C/	-ius	8e\	-ius	8g\	-ius
4AA/	6	4AA/	.	4.ff\	8AA/	no-	8a\	no-	8cc\	in
!	!	!	!	!	!	!	!LO:TX:t=P:problem:kreska pseudotaktowa	!	!	!
!	!	!	!	!	!	!	!LO:SIC:v:t=custos f	!	!	!
.	.	.	.	.	8AA/	-men	8g\	-men	8cc,<\	i-
!	!	!	!	!	!	!	!LO:LB:g=original	!	!	!
=93-	=93-	=93-	=93-	=93-	=93-	=93-	=93-	=93-	=93-	=93-
4BB-/	.	4BB-/	4b-/	.	8BB-/	e-	8f\	e-	8dd\	-psum
.	.	.	.	8ff\J	8BB-/	-ius	8g\	-ius	8eeny\	.
4FF/	.	4FF/	4a/	4ff\	8FF/	in	8a\	in	8ff\	in
!	!	!	!	!	!	!	!	!	!LO:SIC:v:t=custos ff	!
.	.	.	.	.	8FF/	id	8g\	id	8ff\	id
!	!	!	!	!	!	!	!LO:TX:t=P:problem:kreska pseudotaktowa	!	!LO:LB:g=original	!
2C/	4	2C/	4.cc\	4.gg\	2C/	i-	2g\	ip-	(4.ff\	ip-
.	3	.	8cc\	8gg\	.	.	.	.	8ee,<\)	.
=94-	=94-	=94-	=94-	=94-	=94-	=94-	=94-	=94-	=94-	=94-
1FF	.	1FF	1cc	1ff	8F\	-psum	4a\	-sum	4ff\	-sum
.	.	.	.	.	8FF/	et	.	.	.	.
.	.	.	.	.	8FF/	ex	4r	.	4r	.
.	.	.	.	.	8GG/	al-	.	.	.	.
.	.	.	.	.	16AA/LL	-te-	2r	.	2r	.
.	.	.	.	.	16FF/	.	.	.	.	.
.	.	.	.	.	16AA/	.	.	.	.	.
.	.	.	.	.	16GG/JJ	.	.	.	.	.
.	.	.	.	.	16FF/LL	.	.	.	.	.
.	.	.	.	.	16GG/	.	.	.	.	.
.	.	.	.	.	16AA/	.	.	.	.	.
.	.	.	.	.	16BB-/JJ	.	.	.	.	.
=95-	=95-	=95-	=95-	=95-	=95-	=95-	=95-	=95-	=95-	=95-
1C	.	1C	8r	8r	4C/	.	1r	.	1r	.
.	.	.	8cc\L	8ee\L	.	.	.	.	.	.
.	.	.	8cc\	8ee\	4C/	-mus	.	.	.	.
.	.	.	8dd\J	8ff\J	.	.	.	.	.	.
.	.	.	16eeny\LL	16gg\LL	2r	.	.	.	.	.
.	.	.	16cc\	16ee\	.	.	.	.	.	.
.	.	.	16ee\	16gg\	.	.	.	.	.	.
.	.	.	16dd\JJ	16ff\JJ	.	.	.	.	.	.
.	.	.	16cc\LL	16ee\LL	.	.	.	.	.	.
.	.	.	16dd\	16ff\	.	.	.	.	.	.
.	.	.	16ee\	16gg\	.	.	.	.	.	.
.	.	.	16ff\JJ	16aa\JJ	.	.	.	.	.	.
=96-	=96-	=96-	=96-	=96-	=96-	=96-	=96-	=96-	=96-	=96-
2.GG/	.	2.GG/	4gg\	4bb-\	2r	.	8r	.	8r	.
.	.	.	.	.	.	.	8g\	et	8b-\	et
.	.	.	4gg\	4bb-\	.	.	8g\	ex	8b-\	ex
.	.	.	.	.	.	.	8a\	al-	8cc\	al-
!	!	!	!LO:TX:t=P:problem:kreska pseudotaktowa	!	!	!	!	!	!	!
.	.	.	2gg\	2bb-\	4r	.	16b-\LL	-te-	16dd\LL	-te-
.	.	.	.	.	.	.	16g\	.	16b-\	.
.	.	.	.	.	.	.	16b-\	.	16dd\	.
.	.	.	.	.	.	.	16a\JJ	.	16cc\JJ	.
4G\	.	4G\	.	.	8G\	ex	16g\LL	.	16b-\LL	.
.	.	.	.	.	.	.	16a\	.	16cc\	.
!	!	!	!	!	!LO:SIC:v:t=custos D	!	!	!	!	!
.	.	.	.	.	8G\	al-	16b-\	.	16dd\	.
!	!	!	!	!	!	!	!LO:TX:t=P:problem:kreska pseudotaktowa	!	!	!
.	.	.	.	.	.	.	16cc\JJ	.	16ee,<\JJ	.
!	!	!	!	!LO:LB:g=original	!LO:LB:g=original	!	!	!	!	!
=97-	=97-	=97-	=97-	=97-	=97-	=97-	=97-	=97-	=97-	=97-
4D\	.	4D\	4ff\	4aa\	8D/	-te-	8dd\	.	8ff\	.
.	.	.	.	.	8D/	-m(us)	8dd\	-mus	8ff\	-mus
!	!	!	!LO:SIC:v:t=custos cc	!	!	!	!	!	!	!
4E-X\	.	4E-X\	4r	4r	8E-X\	no-	8cc\	no-	8ee-X\	no-
.	.	.	.	.	8E-\	-men	8b-\	-men	8dd\	-men
!	!	!	!LO:LB:g=original	!	!	!	!	!	!	!
4F\	.	4F\	8r	8r	8F\	e-	8a\	e-	8cc\	e-
.	.	.	8cc\L	8ff\L	8F\	-ius	8a\	-ius	8cc\	-ius
8D\L	6	8D/L	8b-\	8ff\	8D\	in	8b-\	in	8dd\	in
!LO:TX:t=P:problem:kreska pseudotaktowa	!	!LO:TX:t=P:problem:kreska pseudotaktowa	!LO:TX:t=P:problem:kreska pseudotaktowa	!LO:TX:t=P:problem:kreska pseudotaktowa	!	!	!LO:TX:t=P:problem:kreska pseudotaktowa	!	!	!
8BB-\J	.	8BB-/J	8b-\J	8ff\J	8BB-/	id	8b-\	id	8dd,<\	id
=98-	=98-	=98-	=98-	=98-	=98-	=98-	=98-	=98-	=98-	=98-
4F\	4	4F\	2cc\	2ff\	4F\	i-	4.b-\	ip-	2cc\	ip-
4FF/	3	4FF/	.	.	4FF/	-psum	.	.	.	.
.	.	.	.	.	.	.	(8a\	-psum	.	.
4BB-/	.	4BB-/	4b-\	8ff\L	4BB-/	in	4b-\)	.	4dd\	-sum
.	.	.	.	8gg\J	.	.	.	.	.	.
8AA/L	6	8AA/L	4cc\	4aa\	(8AA/L	id	8f\	in	8cc\	in
!	!	!	!	!	!	!	!LO:SIC:v:t=custos e	!	!	!
8BB-/J	.	8BB-/J	.	.	8BB-/J)	.	8f\	id	8dd,<\	id
!	!	!	!	!	!	!	!LO:LB:g=original	!	!	!
=99-	=99-	=99-	=99-	=99-	=99-	=99-	=99-	=99-	=99-	=99-
1C	3	1C	2.cc\	2.gg\	1C	i-	4e\	ip-	1g	ip-
.	.	.	.	.	.	.	2f\	.	.	.
.	4	.	4cc\	4gg\	.	.	(4e\	-sum	.	.
=100-	=100-	=100-	=100-	=100-	=100-	=100-	=100-	=100-	=100-	=100-
1FF	3	1FF;	1cc	1ff	1FF	-psum	1f)	.	1a	-sum
!	!	!	!	!	!	!	!	!	!LO:LB:g=original	!
=101||-	=101||-	=101||	=101||	=101||	=101||	=101||-	=101||	=101||-	=101||-	=101||-
*M3/4	*	*M3/4	*M3/4	*M3/4	*M3/4	*	*M3/4	*	*M3/4	*
!LO:TX:b:i:t=Allaluia	!	!LO:TX:b:i:t=Alleluia	!	!LO:TX:b:i:t=Alleluia	!	!	!	!	!	!
2F\	.	2F\	0.r	0.r	4r	.	0.r	.	4r	.
.	.	.	.	.	8A\L	Al-	.	.	8cc\L	Al-
.	.	.	.	.	8F\J	.	.	.	8a\J	.
4B-\	.	4B-\	.	.	8B-\L	-le-	.	.	8dd\L	-le-
.	.	.	.	.	8G,<\J	.	.	.	8b-,<\J	.
=102-	=102-	=102-	=102-	=102-	=102-	=102-	=102-	=102-	=102-	=102-
2A\	.	2A\	.	.	8A\L	.	.	.	8cc\L	.
.	.	.	.	.	8G\	.	.	.	8b-\	.
.	.	.	.	.	8A\	.	.	.	8cc\	.
.	.	.	.	.	8B-\	.	.	.	8dd\	.
!	!	!LO:TX:t=P:problem:kreska pseudotaktowa	!	!	!	!	!	!	!	!
4G\	.	4G\	.	.	8G\	.	.	.	8b-\	.
.	.	.	.	.	8A\J	.	.	.	8cc,<\J	.
=103-	=103-	=103-	=103-	=103-	=103-	=103-	=103-	=103-	=103-	=103-
2F\	.	2F\	.	.	8F\L	.	.	.	8a\L	.
.	.	.	.	.	8E\	.	.	.	8g\	.
.	.	.	.	.	8F\	.	.	.	8a\	.
.	.	.	.	.	8D\	.	.	.	8f\	.
4G\	.	4G\	.	.	8G\	.	.	.	(8b-\	-lu-
!	!	!	!	!	!LO:SIC:v:t=custos F	!	!	!	!	!
.	.	.	.	.	8E\J	.	.	.	8g,<\J)	.
!	!	!	!	!	!LO:LB:g=original	!	!	!	!	!
=104-	=104-	=104-	=104-	=104-	=104-	=104-	=104-	=104-	=104-	=104-
2F\	.	2F\	.	.	8F\L	.	.	.	4a\	-ia
.	.	.	.	.	8E\	.	.	.	.	.
.	.	.	.	.	8F\	.	.	.	8a\L	al-
.	.	.	.	.	8G\J	.	.	.	8b-\J	.
!	!	!LO:TX:t=P:problem:kreska pseudotaktowa	!	!	!	!	!	!	!	!
4E-X\	.	4E-X\	.	.	8E-X\L	-lu-	.	.	8g\L	-le-
!	!	!	!	!	!LO:TX:t=P:problem:kreska pseudotaktowa	!	!	!	!	!
.	.	.	.	.	8F\J	.	.	.	8a,<\J	.
=105-	=105-	=105-	=105-	=105-	=105-	=105-	=105-	=105-	=105-	=105-
2D/	.	2D/	0.r	0.r	4D/	-ia	4r	.	4f/	-lu-
.	.	.	.	.	4D/	al-	8f\L	al-	4a\	-ia
.	.	.	.	.	.	.	8d\J	.	.	.
!	!	!	!	!	!	!	!	!	!LO:TX:b:i:t=verte Cito	!
!	!	!	!	!	!	!	!	!	!LO:SIC:v:t=custos a	!
4E-X\	.	4E-X\	.	.	4E-X\	-le-	8g\L	-le-	4r	.
!	!	!	!	!	!	!	!LO:TX:t=P:problem:kreska pseudotaktowa	!	!	!
.	.	.	.	.	.	.	8e-X\J	.	.	.
!	!	!	!	!	!	!	!	!	!LO:PB:g=original	!
=106-	=106-	=106-	=106-	=106-	=106-	=106-	=106-	=106-	=106-	=106-
2D/	.	2D/	.	.	2D/	-lu-	8f\L	.	4r	.
.	.	.	.	.	.	.	8e\	.	.	.
.	.	.	.	.	.	.	8f\	.	4.a\	al-
.	.	.	.	.	.	.	8g\	.	.	.
!	!	!	!	!	!	!	!LO:TX:t=P:problem:♭ above	!	!	!
4C/	-	4C/	.	.	4C/	-ia	8e-X\	.	.	.
!	!	!	!	!	!	!	!LO:TX:t=P:problem:kreska pseudotaktowa	!	!	!
.	.	.	.	.	.	.	8f\J	.	8a,<\	-le-
=107-	=107-	=107-	=107-	=107-	=107-	=107-	=107-	=107-	=107-	=107-
*	*	*	*	*	*	*ij	*	*	*	*
2.BB-/	.	2.BB-/	.	.	2BB-/	al-	8d/L	.	8b-\L	-lu-
.	.	.	.	.	.	.	8c/	.	8a\	.
.	.	.	.	.	.	.	8d/	.	8b-\	.
.	.	.	.	.	.	.	8B-/	.	8g\	.
.	.	.	.	.	4BB-/	-le-	8c/	.	8a\	.
.	.	.	.	.	.	.	8d/J	.	8b-,<\J	.
=108-	=108-	=108-	=108-	=108-	=108-	=108-	=108-	=108-	=108-	=108-
2F\	.	2F\	.	.	2F\	-lu-	8c/L	-lu-	8a\L	-ia
.	.	.	.	.	.	.	8B-/	.	8g\	.
.	.	.	.	.	.	.	8c/	.	8a\	.
!	!	!	!	!	!	!	!	!	!LO:N:acc=#	!
!	!	!	!	!	!	!	!	!	!LO:TX:t=P:problem:# above	!
.	.	.	.	.	.	.	8d/J	.	8bn\J	.
!	!	!LO:TX:t=P:problem:kreska pseudotaktowa	!	!	!	!	!	!	!	!
4C/	-	4C/	.	.	4C/	-ia	4e-X\	-ia	4cc,<\	.
=109-	=109-	=109-	=109-	=109-	=109-	=109-	=109-	=109-	=109-	=109-
4F\	.	4F\	2.r	2.r	4F\	al-	4e-y\	al-	4cc\	al-
4G\	4	4G\	.	.	4G\	-le-	4.d\	-le-	(4.cc\	-le-
4GG/	3	4GG/	.	.	4GG/	-lu-	.	.	.	.
!	!	!	!	!	!	!	!LO:TX:t=P:problem:kreska pseudotaktowa	!	!LO:N:acc=#	!
.	.	.	.	.	.	.	8d\	-lu-	8bn\)	-lu-
=110-	=110-	=110-	=110-	=110-	=110-	=110-	=110-	=110-	=110-	=110-
!	!	!	!LO:TX:b:i:t=Alleluia	!	!	!	!LO:N:acc=#	!	!	!
2C/	#	2C/	4r	4r	2C/	-ia	2en\	-ia	2cc\	-ia
*	*	*	*	*	*	*Xij	*	*	*	*
.	.	.	8ee\L	8gg\L	.	.	.	.	.	.
.	.	.	8cc\	8ee\	.	.	.	.	.	.
!LO:SIC:v:t=custos C 	!	!	!	!	!	!	!	!	!	!
4FF/	.	4FF/	8ff\	8aa\	4r	.	4r	.	4r	.
!	!	!	!LO:TX:t=P:problem:kreska pseudotaktowa	!LO:TX:t=P:problem:kreska pseudotaktowa	!	!	!	!	!	!
.	.	.	8dd\J	8ff\J	.	.	.	.	.	.
!LO:LB:g=original	!	!	!	!	!	!	!	!	!	!
=111-	=111-	=111-	=111-	=111-	=111-	=111-	=111-	=111-	=111-	=111-
!	!	!	!	!	!LO:TX:a:t=6.	!	!	!	!LO:TX:a:t=10.	!
2C/	.	2C/	8ee\L	8gg\L	0.r	.	0.r	.	0.r	.
.	.	.	8dd\	8ff\	.	.	.	.	.	.
.	.	.	8ee\	8gg\	.	.	.	.	.	.
.	.	.	8ff\	8aa\	.	.	.	.	.	.
!	!	!LO:SIC:v:t=custos E	!	!	!	!	!	!	!	!
4D/	.	4D/	8dd\	8ff\	.	.	.	.	.	.
.	.	.	8ee\J	8gg\J	.	.	.	.	.	.
!	!	!LO:LB:g=original	!	!	!	!	!	!	!	!
=112-	=112-	=112-	=112-	=112-	=112-	=112-	=112-	=112-	=112-	=112-
4Eny\	6	4Eny\	8cc#X\L	8ee\L	.	.	.	.	.	.
.	.	.	8b-\	8dd\	.	.	.	.	.	.
4.E\	.	4.E\	8cc#\	8ee\	.	.	.	.	.	.
.	.	.	8dd\J	8ff\J	.	.	.	.	.	.
.	.	.	4cc#\	4ee\	.	.	.	.	.	.
!	!	!LO:TX:t=P:problem:♯above	!	!	!	!	!	!	!	!
8F#X\	.	8F#X\	.	.	.	.	.	.	.	.
=113-	=113-	=113-	=113-	=113-	=113-	=113-	=113-	=113-	=113-	=113-
!	!	!	!LO:N:acc=#	!	!	!	!	!	!	!
2.G\	#	2.G\	8bn/L	8dd\L	.	.	.	.	.	.
.	.	.	8a/	8cc\	.	.	.	.	.	.
!	!	!	!	!LO:TX:t=P:problem:# above	!	!	!	!	!	!
!	!	!	!	!LO:N:acc=#	!	!	!	!	!	!
.	.	.	8g/	8bn\	.	.	.	.	.	.
.	.	.	8a/	8cc\	.	.	.	.	.	.
.	.	.	8b/	8dd\	.	.	.	.	.	.
!	!	!	!LO:TX:t=P:problem:kreska pseudotaktowa	!	!	!	!	!	!	!
!	!	!	!LO:TX:t=P:problem:# below	!LO:TX:t=P:problem:kreska pseudotaktowa	!	!	!	!	!	!
.	.	.	8cc#X/J	8ee\J	.	.	.	.	.	.
=114-	=114-	=114-	=114-	=114-	=114-	=114-	=114-	=114-	=114-	=114-
!	!	!LO:TX:t=P:problem:kreska pseudotaktowa	!	!	!	!	!	!	!	!
2.D/	-	2.D/	8dd\L	8ff\L	.	.	.	.	.	.
.	.	.	8cc#y\	8ee\	.	.	.	.	.	.
.	.	.	8dd\	8ff\	.	.	.	.	.	.
.	.	.	8ee\	8gg\	.	.	.	.	.	.
.	.	.	8ff\	8aa\	.	.	.	.	.	.
!	!	!	!LO:TX:t=P:problem:kreska pseudotaktowa	!LO:TX:t=P:problem:kreska pseudotaktowa	!	!	!	!	!	!
.	.	.	8gg\J	8bb-\J	.	.	.	.	.	.
=115-	=115-	=115-	=115-	=115-	=115-	=115-	=115-	=115-	=115-	=115-
!	!	!	!	!	!LO:TX:b:i:t=Verte.	!	!	!	!	!
4AA/	6	4AA/	4aa\	4aa\	1.r	.	0.r	.	0.r	.
4BB-/	.	4BB-/	8gg\L	8bb-\L	.	.	.	.	.	.
.	.	.	8ff\J	8aa\	.	.	.	.	.	.
4C/	.	4C/	8ee\L	8gg\	.	.	.	.	.	.
.	.	.	8gg\J	8aa\J	.	.	.	.	.	.
=116-	=116-	=116-	=116-	=116-	=116-	=116-	=116-	=116-	=116-	=116-
4GG/	.	4GG/	4gg\	4bb-\	.	.	.	.	.	.
4C/	6 5	4C/	4.gg\	4.aa\	.	.	.	.	.	.
!	!	!LO:TX:t=P:problem:kreska pseudotaktowa	!	!	!	!	!	!	!	!
4D/	.	4D/	.	.	.	.	.	.	.	.
.	.	.	8ff#X\	8aa\	.	.	.	.	.	.
!	!	!	!	!	!LO:PB:g=original	!	!	!	!	!
=117-	=117-	=117-	=117-	=117-	=117-	=117-	=117-	=117-	=117-	=117-
!	!	!	!	!LO:N:acc=#	!	!	!	!	!	!
2G\	#	2G\	2gg\	2bbn\	4r	.	.	.	.	.
.	.	.	.	.	8G\L	al-	.	.	.	.
.	.	.	.	.	8Eny\J	.	.	.	.	.
!LO:TX:t=P:problem:kreska pseudotaktowa	!	!	!	!	!	!	!	!	!	!
4A\	.	4A\	4r	4r	8A\L	-le-	.	.	.	.
.	.	.	.	.	8F,<\J	.	.	.	.	.
=118-	=118-	=118-	=118-	=118-	=118-	=118-	=118-	=118-	=118-	=118-
2G\	#	2G\	0.r	0.r	8G\L	.	.	.	.	.
.	.	.	.	.	8F\	.	.	.	.	.
.	.	.	.	.	8G\	.	.	.	.	.
.	.	.	.	.	8A\	.	.	.	.	.
4Fny\	.	4Fny\	.	.	8F\	.	.	.	.	.
.	.	.	.	.	8G,<\J	.	.	.	.	.
!	!	!	!	!	!	!	!LO:PB:g=original	!	!	!
=119-	=119-	=119-	=119-	=119-	=119-	=119-	=119-	=119-	=119-	=119-
2E\	.	2E\	.	.	8E\L	.	4r	.	1.r	.
.	.	.	.	.	8D\	.	.	.	.	.
.	.	.	.	.	8E\	.	8g\L	al-	.	.
.	.	.	.	.	8C\	.	8e\J	.	.	.
!LO:TX:t=P:problem:kreska pseudotaktowa	!	!LO:TX:t=P:problem:kreska pseudotaktowa	!	!	!	!	!	!	!	!
4F\	.	4F\	.	.	8F\	-lu-	8a\L	-le-	.	.
!	!	!	!	!	!	!	!LO:TX:t=P:problem:kreska pseudotaktowa	!	!	!
.	.	.	.	.	8D,<\J	.	8f\J	.	.	.
=120-	=120-	=120-	=120-	=120-	=120-	=120-	=120-	=120-	=120-	=120-
2E\	.	2E\	.	.	4E\	-ia	8g\L	.	.	.
.	.	.	.	.	.	.	8f\	.	.	.
.	.	.	.	.	4E\	al-	8g\	.	.	.
.	.	.	.	.	.	.	8a\J	.	.	.
4D/	.	4D/	.	.	4D/	-le-	8f\L	.	.	.
.	.	.	.	.	.	.	8g\J	.	.	.
=121-	=121-	=121-	=121-	=121-	=121-	=121-	=121-	=121-	=121-	=121-
2C/	.	2C/	.	.	2C/	-lu-	4e\	-ia	4r	.
*	*	*	*	*	*	*	*	*ij	*	*
.	.	.	.	.	.	.	4.g\	al-	8cc\L	al-
.	.	.	.	.	.	.	.	.	8a\J	.
4BB-/	.	4BB-/	.	.	4BB-/	-ia	.	.	8dd\L	-le-
.	.	.	.	.	.	.	8g\	-le-	8b-y,<\J	.
=122-	=122-	=122-	=122-	=122-	=122-	=122-	=122-	=122-	=122-	=122-
*	*	*	*	*	*	*ij	*	*	*	*
2AA/	.	2AA/	0.r	0.r	2AA/	al-	4a\	-lu-	8cc\L	.
.	.	.	.	.	.	.	.	.	8b-\	.
.	.	.	.	.	.	.	4f\	-ia	8cc\	.
*	*	*	*	*	*	*	*	*Xij	*	*
.	.	.	.	.	.	.	.	.	8dd\J	.
!	!	!	!	!	!	!	!LO:TX:t=P:problem:kreska pseudotaktowa	!	!	!
4GG/	.	4GG/	.	.	4GG/	-le-	4r	.	8b-\L	.
.	.	.	.	.	.	.	.	.	8cc,<\J	.
=123-	=123-	=123-	=123-	=123-	=123-	=123-	=123-	=123-	=123-	=123-
2.FF/	.	2.FF/	.	.	2.FF/	-lu-	8f\L	al-	8a\L	.
.	.	.	.	.	.	.	8e\	.	8g\	.
.	.	.	.	.	.	.	8f\	.	8a\	.
.	.	.	.	.	.	.	8d\	.	8f\	.
.	.	.	.	.	.	.	8e\	.	8g\	.
.	.	.	.	.	.	.	8f\J	.	8a,<\J	.
=124-	=124-	=124-	=124-	=124-	=124-	=124-	=124-	=124-	=124-	=124-
!LO:TX:t=P:problem:kreska pseudotaktowa	!	!LO:TX:t=P:problem:kreska pseudotaktowa	!	!	!	!	!	!	!	!
2.C/	.	2.C/	.	.	2.C/	-ia	8e\L	-le-	8g/L	-lu-
.	.	.	.	.	.	.	8d\J	.	8f/	.
.	.	.	.	.	.	.	8e\L	-lu-	8g/	.
.	.	.	.	.	.	.	8f\J	.	8a/J	.
!	!	!	!	!	!	!	!LO:TX:t=P:problem:kreska pseudotaktowa	!	!LO:SIC:v:t=custos cc	!
.	.	.	.	.	.	.	4e\	-ia	4g,</	-ia
!	!	!	!	!	!	!	!	!	!LO:LB:g=original	!
=125-	=125-	=125-	=125-	=125-	=125-	=125-	=125-	=125-	=125-	=125-
*	*	*	*	*	*	*Xij	*	*ij	*	*
4AA/	6	4AA/	.	.	4AA/	Al-	4f\	al-	4cc\	al-
4BB-/	.	4BB-/	.	.	4BB-/	-le-	4.f\	-le-	8b-\L	-le-
.	.	.	.	.	.	.	.	.	8a\J	.
4C/	.	4C/	.	.	4C/	-lu-	.	.	4g,</	-lu-
!	!	!	!	!	!	!	!LO:TX:t=P:problem:kreska pseudotaktowa	!	!	!
.	.	.	.	.	.	.	8e\	-lu-	.	.
=126-	=126-	=126-	=126-	=126-	=126-	=126-	=126-	=126-	=126-	=126-
2F\	.	2F\	1.r	0.r	2FF/	-ia	4f\	-ia	4a\	-ia
*	*	*	*	*	*	*	*	*Xij	*	*
.	.	.	.	.	.	.	8f\L	al-	4r	.
.	.	.	.	.	.	.	8d\J	.	.	.
!	!	!	!	!	!	!	!	!	!LO:TX:t=P:problem:kreska pseudotaktowa	!
4E-X\	.	4E-X\	.	.	4r	.	8g\L	-le-	4r	.
!	!	!	!	!	!	!	!LO:TX:t=P:problem:♭ above	!	!	!
.	.	.	.	.	.	.	8e-X\J	.	.	.
=127-	=127-	=127-	=127-	=127-	=127-	=127-	=127-	=127-	=127-	=127-
!	!	!	!	!	!LO:TX:a:t=2.	!	!	!	!	!
!	!	!	!	!	!LO:SIC:v:t=custos B-	!	!	!	!	!
2D/	6	2D/	.	.	1.r	.	4f\	-lu-	4r	.
.	.	.	.	.	.	.	2b-\	-ia	8ff\L	al-
.	.	.	.	.	.	.	.	.	8dd\J	.
!LO:TX:t=P:problem:kreska pseudotaktowa	!	!	!	!	!	!	!	!	!	!
!LO:TX:t=P:problem:♭ above	!	!LO:TX:t=P:problem:kreska pseudotaktowa	!	!	!	!	!	!	!	!
4E-X\	.	4E-X\	.	.	.	.	.	.	8gg\L	-le-
!	!	!	!	!	!	!	!	!	!LO:TX:t=P:problem:kreska pseudotaktowa	!
.	.	.	.	.	.	.	.	.	8ee-X\J	.
=128-	=128-	=128-	=128-	=128-	=128-	=128-	=128-	=128-	=128-	=128-
*	*	*	*	*	*	*	*	*ij	*	*
2D/	.	2D/	2.r	.	.	.	4b-\	al-	8ff\L	.
.	.	.	.	.	.	.	.	.	8ee\	.
.	.	.	.	.	.	.	4.b-\	-le-	8ff\	.
.	.	.	.	.	.	.	.	.	8gg\J	.
4C/	7 -	4C/	.	.	.	.	.	.	8ee-X\L	-lu-
.	6	.	.	.	.	.	8a\	-lu-	8ff,<\J	.
!	!	!	!	!	!LO:LB:g=original	!	!	!	!	!
=129-	=129-	=129-	=129-	=129-	=129-	=129-	=129-	=129-	=129-	=129-
!	!	!	!	!	!	!	!LO:SIC:v:t=custos f	!	!	!
4BB-/	.	4BB-/	4r	.	4r	.	2b-\	-ia	2dd\	-ia
*	*	*	*	*	*	*	*	*Xij	*	*
4B-\	.	4B-\	8dd\L	.	8B-\L	al-	.	.	.	.
.	.	.	8b-y\	.	8G\J	.	.	.	.	.
4c\	.	4c\	8ee-X\	.	8c\L	-le-	4ryy	.	4r	.
!	!	!	!LO:SIC:v:t=custos dd	!	!	!	!	!	!	!
.	.	.	8cc\J	.	8A,<\J	.	.	.	.	.
!	!	!	!LO:LB:g=original	!	!	!	!LO:LB:g=original	!	!	!
=130-	=130-	=130-	=130-	=130-	=130-	=130-	=130-	=130-	=130-	=130-
!	!	!	!	!LO:SIC:v:t=custos bb-	!	!	!	!	!	!
2B-\	.	2B-\	8dd\L	2.r	8B-\L	-lu-	4r	.	2.r	.
.	.	.	8cc\	.	8A\	.	.	.	.	.
.	.	.	8dd\	.	8B-\	.	4f\	al-	.	.
!	!	!	!LO:TX:t=P:problem:♭ above	!	!	!	!	!	!	!
.	.	.	8ee-X\J	.	8c\	.	.	.	.	.
!LO:TX:t=P:problem:kreska pseudotaktowa	!	!LO:TX:t=P:problem:kreska pseudotaktowa	!	!	!	!	!	!	!	!
4A\	.	4A\	8cc\L	.	8A\	.	4f\	-le-	.	.
.	.	.	8dd\J	.	8B-,<\J	.	.	.	.	.
=131-	=131-	=131-	=131-	=131-	=131-	=131-	=131-	=131-	=131-	=131-
2G\	.	2G\	8b-\L	4r	4G\	-ia	4.g\	-lu-	4r	.
.	.	.	8cc\J	.	.	.	.	.	.	.
!	!	!	!LO:TX:t=P:problem:kreska pseudotaktowa	!	!	!	!	!	!	!
.	.	.	4dd\	8bb-y\L	4G\	al-	.	.	4dd\	al-
.	.	.	.	8gg\	.	.	(8f\	.	.	.
4A-X\	.	4A-X\	4r	8ccc\	4A-X,<\	-le-	4e-X\)	.	4cc,<\	-le-
!	!	!	!	!LO:TX:t=P:problem:kreska pseudotaktowa	!	!	!	!	!	!
!	!	!	!	!LO:TX:t=P:problem:♭ above	!	!	!	!	!	!
.	.	.	.	8aa-X\J	.	.	.	.	.	.
=132-	=132-	=132-	=132-	=132-	=132-	=132-	=132-	=132-	=132-	=132-
2G\	.	2G\	4r	8bb-\L	8G\L	-lu-	2g\	-ia	4dd\	-lu-
!	!	!	!	!LO:TX:t=P:problem:♭ above	!	!	!	!	!	!
.	.	.	.	8aa-X\	8F\	.	.	.	.	.
.	.	.	2b-/	8bb-\	8G\	.	.	.	4b-\	-ia
.	.	.	.	8ccc\	8A-X\J	.	.	.	.	.
!	!	!	!	!	!	!	!LO:TX:t=P:problem:kreska pseudotaktowa	!	!	!
4F\	-	4F\	.	8aa-X\	4F\	-ia	4r	.	(8cc\L	.
.	.	.	.	8bb-\J	.	.	.	.	8dd,<\J)	.
=133-	=133-	=133-	=133-	=133-	=133-	=133-	=133-	=133-	=133-	=133-
4E-X\	.	4E-X\	4b-/	4gg\	4E-X\	al-	4g\	al-	2.ee-X,<\	.
4D/	.	4D/	4.cc\	4.aany\	8D/L	-le-	8f\L	-le-	.	.
.	.	.	.	.	8E-X/J	.	8g\J	.	.	.
!	!	!LO:SIC:v:t=custos BB-	!	!	!	!	!	!	!	!
4C/	.	4C/	.	.	8C/L	-lu-	8e-X\L	-lu-	.	.
.	.	.	8cc\	8aa\	8D/J	.	8f\J	.	.	.
!LO:LB:g=original	!	!LO:LB:g=original	!	!	!	!	!	!	!	!
=134-	=134-	=134-	=134-	=134-	=134-	=134-	=134-	=134-	=134-	=134-
4.BB-/	.	4.BB-/	2dd\	2bb-\	(4.BB-/	-ia	(4.d\	-ia	4r	.
.	.	.	.	.	.	.	.	.	2ff,<\	al-
8C/	.	8C/	.	.	8C/)	.	8eny\)	.	.	.
!	!	!	!LO:TX:t=P:problem:kreska pseudotaktowa	!	!	!	!LO:TX:t=P:problem:kreska pseudotaktowa	!	!	!
4D/	.	4D/	4b-/	4bb-\	4D/	.	4f\	.	.	.
=135-	=135-	=135-	=135-	=135-	=135-	=135-	=135-	=135-	=135-	=135-
4E-X\	.	4E-X\	4r	4bb-\	4E-X\	al-	4g\	al-	2cc\	-le-
2F\	4	2F\	[2ffny\	4.bb-\	4.F\	-le-	4.f\	-le-	.	.
!	!	!	!	!	!	!	!	!	!LO:SIC:v:t=custos dd	!
.	.	.	.	.	.	.	.	.	4cc,<\	-lu-
.	3	.	.	8aa\	8F,<\	-lu-	8f\	-lu-	.	.
!	!	!	!	!	!	!	!	!	!LO:LB:g=original	!
=136-	=136-	=136-	=136-	=136-	=136-	=136-	=136-	=136-	=136-	=136-
2B-\	.	2B-\	4ff\]	2.bb-\	4B-\	-ia	4f\	-ia	4dd\	-ia
*	*	*	*	*	*	*ij	*	*	*	*
.	.	.	2b-/	.	4B-\	al-	8f\L	al-	8dd\L	al-
.	.	.	.	.	.	.	8d\J	.	8b-\J	.
!LO:TX:t=P:problem:kreska pseudotaktowa	!	!LO:TX:t=P:problem:kreska pseudotaktowa	!	!	!	!	!	!	!	!
4E-X\	.	4E-X\	.	.	4E-X,<\	-le-	8g\L	-le-	8ee-X\L	-le-
!	!	!	!	!	!	!	!LO:TX:t=P:problem:♭ above	!	!	!
.	.	.	.	.	.	.	8e-X\J	.	8cc,<\J	.
!	!	!	!LO:LB:g=original	!	!	!	!	!	!	!
=137-	=137-	=137-	=137-	=137-	=137-	=137-	=137-	=137-	=137-	=137-
4BB-/	.	4BB-/	4b-/	4bb-\	4BB-/	-lu-	8f\L	.	8dd\L	.
.	.	.	.	.	.	.	8g\	.	8ee-X\	.
!	!	!	!LO:TX:t=P:problem:kreska pseudotaktowa	!	!	!	!	!	!	!
2E-X\	6	2E-X\	2g/	4r	2E-y,<\	-ia	8e-X\	.	8cc\	.
*	*	*	*	*	*	*Xij	*	*	*	*
.	.	.	.	.	.	.	8f\J	.	8dd\J	.
!	!	!	!	!LO:TX:t=P:problem:kreska pseudotaktowa	!	!	!	!	!	!
.	.	.	.	4r	.	.	8d\L	-lu-	8b-\L	-lu-
.	.	.	.	.	.	.	8e-\J	.	8cc,<\J	.
=138-	=138-	=138-	=138-	=138-	=138-	=138-	=138-	=138-	=138-	=138-
4F\	.	4F\	4a/	4r	4F\	al-	4c/	-ia	4a\	-ia
!	!	!	!	!	!LO:TX:t=P:problem:kreska pseudotaktowa	!	!	!	!	!
!	!	!	!	!	!LO:SIC:v:t=custos C	!	!	!	!	!
*	*	*	*	*	*	*	*	*	*	*ij
2AA/	6	2AA/	2cc\	2ff\	2AA,</	-le-	2f\	al-	2a,<\	al-
!	!	!	!	!	!LO:LB:g=original	!	!	!	!	!
=139-	=139-	=139-	=139-	=139-	=139-	=139-	=139-	=139-	=139-	=139-
!LO:TX:t=P:problem:kreska pseudotaktowa	!	!LO:TX:t=P:problem:kreska pseudotaktowa	!	!	!	!	!	!	!	!
2.C/	4	2.C/	2cc\	2gg\	2.C/	-lu-	2f\	-le-	2g/	-le-
.	3	.	4cc\	4gg\	.	.	4eny\	-lu-	4g,</	-lu-
=140-	=140-	=140-	=140-	=140-	=140-	=140-	=140-	=140-	=140-	=140-
2F\	.	2F\	4cc\	4ff\	4FF/	-ia	4f\	-ia	4a\	-ia
*	*	*	*	*	*	*	*	*	*	*Xij
.	.	.	4r	4r	4r	.	4r	.	8cc\L	al-
.	.	.	.	.	.	.	.	.	8a\J	.
!	!	!	!	!	!	!	!LO:SIC:v:t=custos f	!	!	!
4B-\	.	4B-\	4r	4r	4r	.	4r	.	8dd\L	-le-
.	.	.	.	.	.	.	.	.	8b-,<\J	.
!	!	!	!	!	!	!	!LO:LB:g=original	!	!	!
=141-	=141-	=141-	=141-	=141-	=141-	=141-	=141-	=141-	=141-	=141-
2Any\	.	2Any\	0.r	0.r	0.r	.	0.r	.	8cc\L	.
.	.	.	.	.	.	.	.	.	8b-\	.
.	.	.	.	.	.	.	.	.	8cc\	.
.	.	.	.	.	.	.	.	.	8dd\J	.
4G\	.	4G\	.	.	.	.	.	.	8b-\L	-lu-
!	!	!	!	!	!	!	!	!	!LO:TX:t=P:problem:kreska pseudotaktowa	!
.	.	.	.	.	.	.	.	.	8cc\J	.
=142-	=142-	=142-	=142-	=142-	=142-	=142-	=142-	=142-	=142-	=142-
4F\	.	4F\	.	.	.	.	.	.	4a\	-ia
4D/	.	4D/	.	.	.	.	.	.	8ff\L	al-
.	.	.	.	.	.	.	.	.	8dd\J	.
!LO:TX:t=P:problem:kreska pseudotaktowa	!	!LO:TX:t=P:problem:kreska pseudotaktowa	!	!	!	!	!	!	!	!
4E-X\	.	4E-X\	.	.	.	.	.	.	8gg\L	-le-
!	!	!	!	!	!	!	!	!	!LO:TX:t=P:problem:kreska pseudotaktowa	!
.	.	.	.	.	.	.	.	.	8ee-X\J	.
=143-	=143-	=143-	=143-	=143-	=143-	=143-	=143-	=143-	=143-	=143-
2D/	.	2D/	.	.	.	.	.	.	8ff\L	-lu-
!	!	!	!	!	!	!	!	!	!LO:TX:t=P:problem:♭ above	!
.	.	.	.	.	.	.	.	.	8ee-X\	.
.	.	.	.	.	.	.	.	.	8ff\	.
.	.	.	.	.	.	.	.	.	8gg\	.
!	!	!	!	!	!	!	!	!	!LO:TX:t=P:problem:♭ above	!
4C/	-	4C/	.	.	.	.	.	.	8ee-X\	.
.	.	.	.	.	.	.	.	.	8ff,<\J	.
=144-	=144-	=144-	=144-	=144-	=144-	=144-	=144-	=144-	=144-	=144-
2BB-/	.	2BB-/	.	.	.	.	.	.	8dd\L	-ia
.	.	.	.	.	.	.	.	.	8cc\	.
.	.	.	.	.	.	.	.	.	8dd\	.
.	.	.	.	.	.	.	.	.	8ee-X\	.
4AA/	.	4AA/	.	.	.	.	.	.	8cc\	.
!	!	!	!	!	!	!	!	!	!LO:TX:t=P:problem:kreska pseudotaktowa	!
!	!	!	!	!	!	!	!	!	!LO:SIC:v:t=custos b-	!
.	.	.	.	.	.	.	.	.	8dd\J	.
!	!	!	!	!	!	!	!	!	!LO:LB:g=original	!
=145-	=145-	=145-	=145-	=145-	=145-	=145-	=145-	=145-	=145-	=145-
4GG/	.	4GG/	0.r	0.r	0.r	.	0.r	.	8b-\L	al-
.	.	.	.	.	.	.	.	.	8a\	.
2G\	.	2G\	.	.	.	.	.	.	8b-\	.
.	.	.	.	.	.	.	.	.	8cc\	.
.	.	.	.	.	.	.	.	.	8dd\	.
.	.	.	.	.	.	.	.	.	8ee-X,<\J	.
=146-	=146-	=146-	=146-	=146-	=146-	=146-	=146-	=146-	=146-	=146-
2.D/	6	2.D/	.	.	.	.	.	.	8ff\L	.
.	.	.	.	.	.	.	.	.	8cc\	.
.	.	.	.	.	.	.	.	.	8dd\	.
.	.	.	.	.	.	.	.	.	8a\	.
.	.	.	.	.	.	.	.	.	8b-\	.
.	.	.	.	.	.	.	.	.	8f,<\J	.
=147-	=147-	=147-	=147-	=147-	=147-	=147-	=147-	=147-	=147-	=147-
2.E-X\	5	2.E-X\	.	.	.	.	.	.	8g\L	.
.	.	.	.	.	.	.	.	.	8b-\	.
.	6	.	.	.	.	.	.	.	8ee-X\	.
.	.	.	.	.	.	.	.	.	8g\	.
.	.	.	.	.	.	.	.	.	8a\	.
.	.	.	.	.	.	.	.	.	8b-,<\J	.
=148-	=148-	=148-	=148-	=148-	=148-	=148-	=148-	=148-	=148-	=148-
2F\	.	2F\	.	.	.	.	.	.	8a\L	.
.	.	.	.	.	.	.	.	.	8f\	.
.	.	.	.	.	.	.	.	.	8g\	.
.	.	.	.	.	.	.	.	.	8a\	.
!LO:TX:t=P:problem:kreska pseudotaktowa	!	!LO:TX:t=P:problem:kreska pseudotaktowa	!	!	!	!	!	!	!	!
4E-X\	.	4E-X\	.	.	.	.	.	.	8b-\	.
.	.	.	.	.	.	.	.	.	8cc,<\J	.
=149-	=149-	=149-	=149-	=149-	=149-	=149-	=149-	=149-	=149-	=149-
2D/	6	2D/	0.r	0.r	0.r	.	0.r	.	8dd\L	.
.	.	.	.	.	.	.	.	.	8ee-X\	.
.	.	.	.	.	.	.	.	.	8ff\	.
.	.	.	.	.	.	.	.	.	8gg\	.
4E-X\	.	4E-X\	.	.	.	.	.	.	8ee-X\	.
.	.	.	.	.	.	.	.	.	8dd,<\J	.
=150-	=150-	=150-	=150-	=150-	=150-	=150-	=150-	=150-	=150-	=150-
2.F\	5 3	2.F\	.	.	.	.	.	.	8cc\L	.
.	.	.	.	.	.	.	.	.	8ff\	.
.	6 4	.	.	.	.	.	.	.	8ee-X\	-le-
.	.	.	.	.	.	.	.	.	8dd\	.
.	5 3	.	.	.	.	.	.	.	8cc\	-lu-
.	.	.	.	.	.	.	.	.	8dd,<\J	.
=151-	=151-	=151-	=151-	=151-	=151-	=151-	=151-	=151-	=151-	=151-
4B-\	.	4B-\	.	.	.	.	.	.	2b-\	-ia
8BB-/L	.	8BB-/L	.	.	.	.	.	.	.	.
8C/	.	8C/	.	.	.	.	.	.	.	.
!	!	!	!	!	!	!	!	!	!LO:SIC:v:t=custos cc	!
8D/	.	8D/	.	.	.	.	.	.	4r,<	.
!LO:TX:t=P:problem:kreska pseudotaktowa	!	!LO:TX:t=P:problem:kreska pseudotaktowa	!	!	!	!	!	!	!	!
8Eny/J	.	8Eny/J	.	.	.	.	.	.	.	.
!	!	!	!	!	!	!	!	!	!LO:LB:g=original	!
=152-	=152-	=152-	=152-	=152-	=152-	=152-	=152-	=152-	=152-	=152-
2F\	.	2F\	.	.	.	.	.	.	4r	.
.	.	.	.	.	.	.	.	.	8cc\L	al-
.	.	.	.	.	.	.	.	.	8a\J	.
4BB-/	.	4BB-/	.	.	.	.	.	.	8dd\L	-le-
!	!	!	!	!	!	!	!	!	!LO:TX:t=P:problem:kreska pseudotaktowa	!
.	.	.	.	.	.	.	.	.	8b-\J	.
=153-	=153-	=153-	=153-	=153-	=153-	=153-	=153-	=153-	=153-	=153-
2FF/	.	2FF/	1.r	1.r	0.r	.	0.r	.	8cc\L	-lu-
.	.	.	.	.	.	.	.	.	8b-\	.
.	.	.	.	.	.	.	.	.	8cc\	.
.	.	.	.	.	.	.	.	.	8dd\	.
4GG/	.	4GG/	.	.	.	.	.	.	8b-\	.
!	!	!	!	!	!	!	!	!	!LO:TX:t=P:problem:kreska pseudotaktowa	!
.	.	.	.	.	.	.	.	.	8cc\J	.
=154-	=154-	=154-	=154-	=154-	=154-	=154-	=154-	=154-	=154-	=154-
!	!	!	!	!	!	!	!	!	!LO:TX:t=P:problem:mixed beam	!
2.AA/	6	2.AA/	.	.	.	.	.	.	8a\L	-ia
.	.	.	.	.	.	.	.	.	8g\	.
.	.	.	.	.	.	.	.	.	8a\	.
.	.	.	.	.	.	.	.	.	8cc\	.
.	.	.	.	.	.	.	.	.	8ff\	.
.	.	.	.	.	.	.	.	.	8f/J	.
=155-	=155-	=155-	=155-	=155-	=155-	=155-	=155-	=155-	=155-	=155-
4BB-/	.	4BB-/	2.r	2.r	.	.	.	.	(8b-\L	al-
.	.	.	.	.	.	.	.	.	8dd\J)	.
!	!	!LO:SIC:v:t=custos FF	!	!	!	!	!	!	!	!
2C/	4	2C/	.	.	.	.	.	.	4.g/	-le-
.	3	.	.	.	.	.	.	.	8f/	-lu-
!	!	!LO:LB:g=original	!	!	!	!	!	!	!	!
=156-	=156-	=156-	=156-	=156-	=156-	=156-	=156-	=156-	=156-	=156-
4FF/	.	4FF/	4r	4r	.	.	.	.	2f/	-ia
4F\	.	4F\	8a/L	8cc\L	.	.	.	.	.	.
.	.	.	8f/	8a\	.	.	.	.	.	.
4D/	.	4D/	8b-/	8dd\	.	.	.	.	4r	.
!	!	!	!LO:TX:t=P:problem:kreska pseudotaktowa	!LO:TX:t=P:problem:kreska pseudotaktowa	!	!	!	!	!	!
.	.	.	8g/J	8b-y\J	.	.	.	.	.	.
=157-	=157-	=157-	=157-	=157-	=157-	=157-	=157-	=157-	=157-	=157-
!	!	!	!	!	!	!	!	!	!LO:TX:a:t=21	!
2FF/	.	2FF/	8a/L	8cc\L	0.r	.	0.r	.	0.r	.
.	.	.	8g/	8b-\	.	.	.	.	.	.
.	.	.	8a/	8cc\	.	.	.	.	.	.
.	.	.	8b-/	8dd\	.	.	.	.	.	.
4GG/	.	4GG/	8g/	8b-\	.	.	.	.	.	.
.	.	.	8a/J	8cc\J	.	.	.	.	.	.
!LO:LB:g=original	!	!	!	!	!	!	!	!	!	!
=158-	=158-	=158-	=158-	=158-	=158-	=158-	=158-	=158-	=158-	=158-
2.AA/	.	2.AA/	8f/L	8a/L	.	.	.	.	.	.
.	.	.	8e/	8g/	.	.	.	.	.	.
.	.	.	8f/	8a/	.	.	.	.	.	.
.	.	.	8g/	8b-/	.	.	.	.	.	.
.	.	.	8f/	8a/	.	.	.	.	.	.
!	!	!	!LO:TX:t=P:problem:kreska pseudotaktowa	!	!	!	!	!	!	!
.	.	.	8e/J	8g/J	.	.	.	.	.	.
=159-	=159-	=159-	=159-	=159-	=159-	=159-	=159-	=159-	=159-	=159-
2BB-/	.	2BB-/	8d/L	8f/L	.	.	.	.	.	.
.	.	.	8e/	8g/	.	.	.	.	.	.
.	.	.	8f/	8a/	.	.	.	.	.	.
.	.	.	8g/J	8b-/J	.	.	.	.	.	.
!	!	!	!LO:SIC:v:t=custos g	!	!	!	!	!	!	!
4AA/	6	4AA/	4a/	4cc\	.	.	.	.	.	.
!	!	!	!LO:LB:g=original	!LO:LB:g=original	!	!	!	!	!	!
=160-	=160-	=160-	=160-	=160-	=160-	=160-	=160-	=160-	=160-	=160-
4BB-/	.	4BB-/	8g/L	8b-/L	.	.	.	.	.	.
.	.	.	8f/J	8a/J	.	.	.	.	.	.
!	!	!LO:TX:t=P:problem:kreska pseudotaktowa	!	!	!	!	!	!	!	!
2C/	4	2C/	4.f/	4.g/	.	.	.	.	.	.
.	3	.	8e/	8g/	.	.	.	.	.	.
=161-	=161-	=161-	=161-	=161-	=161-	=161-	=161-	=161-	=161-	=161-
2F\	.	2F\	2f/	2a/	0.r	.	4r	.	0.r	.
.	.	.	.	.	.	.	8f\L	al-	.	.
.	.	.	.	.	.	.	8d\J	.	.	.
4E-X\	.	4E-X\	4r	4r	.	.	8g\L	-le-	.	.
!	!	!	!	!	!	!	!LO:TX:t=P:problem:kreska pseudotaktowa	!	!	!
!	!	!	!	!	!	!	!LO:TX:t=P:problem:♭ above	!	!	!
.	.	.	.	.	.	.	8e-X\J	.	.	.
=162-	=162-	=162-	=162-	=162-	=162-	=162-	=162-	=162-	=162-	=162-
2D/	.	2D/	0.r	0.r	.	.	8f\L	-lu-	.	.
.	.	.	.	.	.	.	8e-X\	.	.	.
.	.	.	.	.	.	.	8f\	.	.	.
.	.	.	.	.	.	.	8g\	.	.	.
!	!	!	!	!	!	!	!LO:TX:t=P:problem:♭ above	!	!	!
4C/	-	4C/	.	.	.	.	8e-X\	.	.	.
.	.	.	.	.	.	.	8f\J	.	.	.
=163-	=163-	=163-	=163-	=163-	=163-	=163-	=163-	=163-	=163-	=163-
2.BB-/	.	2.BB-/	.	.	.	.	8d/L	-ia	.	.
.	.	.	.	.	.	.	8c/	.	.	.
.	.	.	.	.	.	.	8d/	.	.	.
.	.	.	.	.	.	.	8B-/	.	.	.
.	.	.	.	.	.	.	8c/	.	.	.
.	.	.	.	.	.	.	8d/J	.	.	.
=164-	=164-	=164-	=164-	=164-	=164-	=164-	=164-	=164-	=164-	=164-
2F\	.	2F\	.	.	.	.	8c\L	al-	.	.
.	.	.	.	.	.	.	8B-\	.	.	.
.	.	.	.	.	.	.	8c\	.	.	.
.	.	.	.	.	.	.	8e-X\	.	.	.
!LO:TX:t=P:problem:kreska pseudotaktowa	!	!LO:TX:t=P:problem:kreska pseudotaktowa	!	!	!	!	!	!	!	!
4D/	# 6	4D/	.	.	.	.	8d\	.	.	.
!	!	!	!	!	!	!	!LO:TX:t=P:problem:kreska pseudotaktowa	!	!	!
.	.	.	.	.	.	.	8f\J	.	.	.
=165-	=165-	=165-	=165-	=165-	=165-	=165-	=165-	=165-	=165-	=165-
2.C/	-	2.C/	.	.	0.r	.	8e-X\L	.	0.r	.
.	.	.	.	.	.	.	8d\	.	.	.
.	.	.	.	.	.	.	8c\	.	.	.
.	.	.	.	.	.	.	8g\	.	.	.
.	.	.	.	.	.	.	8f\	.	.	.
!	!	!	!	!	!	!	!LO:TX:t=P:problem:kreska pseudotaktowa	!	!	!
.	.	.	.	.	.	.	8g\J	.	.	.
=166-	=166-	=166-	=166-	=166-	=166-	=166-	=166-	=166-	=166-	=166-
2.F\	-	2.F\	0.r	0.r	.	.	8a-X\L	.	.	.
.	.	.	.	.	.	.	8g\	.	.	.
.	.	.	.	.	.	.	8f\	.	.	.
.	.	.	.	.	.	.	8g\	.	.	.
.	.	.	.	.	.	.	8e-X\	.	.	.
.	.	.	.	.	.	.	8d\J	.	.	.
=167-	=167-	=167-	=167-	=167-	=167-	=167-	=167-	=167-	=167-	=167-
2G\	6 4	2G\	.	.	.	.	8e-y\L	.	.	.
.	.	.	.	.	.	.	8f\	.	.	.
.	.	.	.	.	.	.	8d\	.	.	.
.	.	.	.	.	.	.	8c\	.	.	.
4GG/	5 3	4GG/	.	.	.	.	8d\	.	.	.
!	!	!	!	!	!	!	!LO:TX:t=P:problem:kreska pseudotaktowa	!	!	!
.	.	.	.	.	.	.	8e-y\J	.	.	.
=168-	=168-	=168-	=168-	=168-	=168-	=168-	=168-	=168-	=168-	=168-
!LO:TX:t=P:problem:kreska pseudotaktowa	!	!LO:TX:t=P:problem:kreska pseudotaktowa	!	!	!	!	!	!	!	!
2.C/	.	2.C/	.	.	.	.	8c\L	.	.	.
.	.	.	.	.	.	.	8d\	.	.	.
!	!	!	!	!	!	!	!LO:TX:t=P:problem:♭ above	!	!	!
.	.	.	.	.	.	.	8e-X\	.	.	.
.	.	.	.	.	.	.	8f\	.	.	.
.	.	.	.	.	.	.	8g\	.	.	.
!	!	!	!	!	!	!	!LO:SIC:v:t=custos b-	!	!	!
.	.	.	.	.	.	.	8any\J	.	.	.
!	!	!	!	!	!	!	!LO:LB:g=original	!	!	!
=169-	=169-	=169-	=169-	=169-	=169-	=169-	=169-	=169-	=169-	=169-
4GG/	.	4GG/	.	.	0.r	.	4b-X\	.	0.r	.
4D/	.	4D/	.	.	.	.	8a\L	-le-	.	.
.	.	.	.	.	.	.	8g\J	.	.	.
4DD/	.	4DD/	.	.	.	.	8a\L	-lu-	.	.
.	.	.	.	.	.	.	8b-\J	.	.	.
=170-	=170-	=170-	=170-	=170-	=170-	=170-	=170-	=170-	=170-	=170-
4GG/	.	4GG/	2.r	8g/L	.	.	2g\	-ia	.	.
.	.	.	.	8a/	.	.	.	.	.	.
!LO:TX:t=P:problem:kreska pseudotaktowa	!	!LO:TX:t=P:problem:kreska pseudotaktowa	!	!	!	!	!	!	!	!
2G\	.	2G\	.	8b-/	.	.	.	.	.	.
.	.	.	.	8cc/	.	.	.	.	.	.
.	.	.	.	8dd/	.	.	4r	.	.	.
.	.	.	.	8ee/J	.	.	.	.	.	.
=171-	=171-	=171-	=171-	=171-	=171-	=171-	=171-	=171-	=171-	=171-
2.D/	-	2.D/	8d/L	2ff\	.	.	0.r	.	.	.
.	.	.	8e/	.	.	.	.	.	.	.
.	.	.	8f/	.	.	.	.	.	.	.
.	.	.	8g/	.	.	.	.	.	.	.
.	.	.	8a/	4ff\	.	.	.	.	.	.
!	!	!	!LO:TX:t=P:problem:# below	!	!	!	!	!	!	!
!	!	!	!LO:N:acc=#	!	!	!	!	!	!	!
.	.	.	8bn/J	.	.	.	.	.	.	.
=172-	=172-	=172-	=172-	=172-	=172-	=172-	=172-	=172-	=172-	=172-
4C/	#	4C/	4cc\	4ee\	.	.	.	.	.	.
4D/	#	4D/	8bny/L	4ff#X\	.	.	.	.	.	.
.	.	.	8a/	.	.	.	.	.	.	.
4E-X\	.	4E-X\	8g/	4gg\	.	.	.	.	.	.
.	.	.	8a/J	.	.	.	.	.	.	.
=173-	=173-	=173-	=173-	=173-	=173-	=173-	=173-	=173-	=173-	=173-
2.D/	4	2.D/	4bny/	2gg\	2.r	.	.	.	0.r	.
.	.	.	4.a/	.	.	.	.	.	.	.
!	!	!	!	!LO:TX:t=P:problem:# above	!	!	!	!	!	!
.	3	.	.	4ff#X\	.	.	.	.	.	.
!	!	!	!LO:TX:t=P:problem:kreska pseudotaktowa	!	!	!	!	!	!	!
.	.	.	8a/	.	.	.	.	.	.	.
=174-	=174-	=174-	=174-	=174-	=174-	=174-	=174-	=174-	=174-	=174-
!	!	!	!LO:N:acc=#	!	!	!	!	!	!	!
!	!	!	!LO:TX:t=P:problem:# below	!	!	!	!	!	!	!
2G\	#	2G\	2bn/	2gg\	4r	.	.	.	.	.
.	.	.	.	.	8G\L	al-	.	.	.	.
.	.	.	.	.	8Eny\J	.	.	.	.	.
!	!	!	!	!LO:TX:t=P:problem:kreska pseudotaktowa	!	!	!	!	!	!
4A\	.	4A\	4r	4r	8Any\L	-le-	.	.	.	.
.	.	.	.	.	8F,<\J	.	.	.	.	.
=175-	=175-	=175-	=175-	=175-	=175-	=175-	=175-	=175-	=175-	=175-
2G\	#	2G\	0.r	0.r	8G\L	.	2.r	.	.	.
.	.	.	.	.	8F\	.	.	.	.	.
.	.	.	.	.	8G\	.	.	.	.	.
.	.	.	.	.	8A\	.	.	.	.	.
!LO:TX:t=P:problem:kreska pseudotaktowa	!	!LO:TX:t=P:problem:kreska pseudotaktowa	!	!	!	!	!	!	!	!
4F\	.	4F\	.	.	8F\	.	.	.	.	.
.	.	.	.	.	8G\J	.	.	.	.	.
=176-	=176-	=176-	=176-	=176-	=176-	=176-	=176-	=176-	=176-	=176-
2Eny\	.	2Eny\	.	.	8E\L	.	4r	.	.	.
.	.	.	.	.	8D\	.	.	.	.	.
.	.	.	.	.	8E\	.	8g\L	al-	.	.
.	.	.	.	.	8C\	.	8eny\J	.	.	.
4F\	.	4F\	.	.	(8F\	-lu-	8a\L	-le-	.	.
!	!	!	!	!	!	!	!LO:TX:t=P:problem:kreska pseudotaktowa	!	!	!
.	.	.	.	.	8D\J)	.	8f\J	.	.	.
=177-	=177-	=177-	=177-	=177-	=177-	=177-	=177-	=177-	=177-	=177-
2E\	.	2E\	.	.	4E\	-ia	8g\L	.	2.r	.
.	.	.	.	.	.	.	8f\	.	.	.
*	*	*	*	*	*	*ij	*	*	*	*
.	.	.	.	.	4E\	al-	8g\	.	.	.
.	.	.	.	.	.	.	8a\J	.	.	.
4D/	.	4D/	.	.	4D/	-le-	8f\L	-lu-	.	.
.	.	.	.	.	.	.	8g\J	.	.	.
=178-	=178-	=178-	=178-	=178-	=178-	=178-	=178-	=178-	=178-	=178-
2C/	.	2C/	.	.	2C/	-lu-	4e\	-ia	4r	.
.	.	.	.	.	.	.	4.g\	al-	8cc\L	al-
.	.	.	.	.	.	.	.	.	8a\J	.
4BB-/	.	4BB-/	.	.	4BB-/	-ia	.	.	8dd\L	-le-
.	.	.	.	.	.	.	8g\	-le-	8b-\J	.
=179-	=179-	=179-	=179-	=179-	=179-	=179-	=179-	=179-	=179-	=179-
2AA/	.	2AA/	0.r	0.r	2AA/	al-	4a\	-lu-	8cc\L	-lu-
.	.	.	.	.	.	.	.	.	8b-\	.
.	.	.	.	.	.	.	4f\	-ia	8cc\	.
.	.	.	.	.	.	.	.	.	8dd\	.
!	!	!	!	!	!	!	!LO:TX:t=P:problem:kreska pseudotaktowa	!	!	!
4GG/	.	4GG/	.	.	4GG/	-le-	4r	.	8b-\	.
.	.	.	.	.	.	.	.	.	8cc,<\J	.
=180-	=180-	=180-	=180-	=180-	=180-	=180-	=180-	=180-	=180-	=180-
2.FF/	.	2.FF/	.	.	2.FF/	-lu-	8f\L	al-	8a\L	-ia
.	.	.	.	.	.	.	8e\	.	8g\	.
.	.	.	.	.	.	.	8f\	.	8a\	.
.	.	.	.	.	.	.	8d\	.	8f\	.
.	.	.	.	.	.	.	8e\	.	8g\	.
!	!	!	!	!	!	!	!	!	!LO:TX:t=P:problem:kreska pseudotaktowa	!
!	!	!	!	!	!	!	!LO:TX:t=P:problem:kreska pseudotaktowa	!	!LO:SIC:v:t=custos g	!
.	.	.	.	.	.	.	8f\J	.	8a\J	.
!	!	!	!	!	!	!	!	!	!LO:LB:g=original	!
=181-	=181-	=181-	=181-	=181-	=181-	=181-	=181-	=181-	=181-	=181-
!	!	!	!	!	!LO:SIC:v:t=custos AA	!	!	!	!	!
2.C/	.	2.C/	.	.	2.C/	-ia	8e\L	-le-	8g/L	.
*	*	*	*	*	*	*Xij	*	*	*	*
.	.	.	.	.	.	.	8d\J	.	8f/	.
.	.	.	.	.	.	.	8e\L	-lu-	8g/	.
.	.	.	.	.	.	.	8f\J	.	8a/J	.
.	.	.	.	.	.	.	4d\	-ia	4g,</	.
!	!	!	!	!	!LO:LB:g=original	!	!	!	!	!
=182-	=182-	=182-	=182-	=182-	=182-	=182-	=182-	=182-	=182-	=182-
4AA/	6	4AA/	.	.	4AA/	al-	4f\	al-	4cc\	al-
4BB-/	.	4BB-/	.	.	4BB-/	-le-	4.f\	-le-	8b-\L	-le-
.	.	.	.	.	.	.	.	.	8a\J	.
4C/	.	4C/	.	.	4C/	-lu-	.	.	4g,</	-lu-
!	!	!	!	!	!	!	!LO:SIC:v:t=custos f	!	!	!
.	.	.	.	.	.	.	8e\	-lu-	.	.
!	!	!	!	!	!	!	!LO:LB:g=original	!	!	!
=183-	=183-	=183-	=183-	=183-	=183-	=183-	=183-	=183-	=183-	=183-
2F\	.	2F\	1.r	0.r	2FF/	-ia	4f\	-ia	4a\	-ia
.	.	.	.	.	.	.	8f\L	al-	4r	.
.	.	.	.	.	.	.	8d\J	.	.	.
!	!	!LO:SIC:v:t=custos D	!	!	!	!	!	!	!LO:TX:t=P:problem:kreska pseudotaktowa	!
4E-X\	.	4E-X\	.	.	4r	.	8g\L	-le-	4r	.
!	!	!	!	!	!	!	!LO:TX:t=P:problem:kreska pseudotaktowa	!	!	!
.	.	.	.	.	.	.	8e-X\J	.	.	.
!LO:LB:g=original	!	!LO:LB:g=original	!	!	!	!	!	!	!	!
=184-	=184-	=184-	=184-	=184-	=184-	=184-	=184-	=184-	=184-	=184-
!	!	!	!	!	!LO:TX:a:t=2.	!	!	!	!	!
2D/	6	2D/	.	.	1.r	.	4f\	-lu-	4r	.
.	.	.	.	.	.	.	2b-\	-ia	8ff\L	al-
.	.	.	.	.	.	.	.	.	8dd\J	.
4E-X\	.	4E-X\	.	.	.	.	.	.	8gg\L	-le-
.	.	.	.	.	.	.	.	.	8ee-X,<\J	.
=185-	=185-	=185-	=185-	=185-	=185-	=185-	=185-	=185-	=185-	=185-
2D/	7	2D/	2.r	.	.	.	4b-\	al-	8ff\L	.
.	.	.	.	.	.	.	.	.	8ee-y\	.
.	.	.	.	.	.	.	4.b-\	-le-	8ff\	.
.	.	.	.	.	.	.	.	.	8gg\J	.
4C/	6 -	4C/	.	.	.	.	.	.	8ee-X\L	-lu-
.	.	.	.	.	.	.	8a\	-lu-	8ff,<\J	.
=186-	=186-	=186-	=186-	=186-	=186-	=186-	=186-	=186-	=186-	=186-
4BB-/	.	4BB-/	4r	.	4r	.	2b-\	-ia	2dd\	-ia
4B-\	.	4B-\	8dd\L	.	8B-\L	al-	.	.	.	.
.	.	.	8b-y\	.	8G\J	.	.	.	.	.
!	!	!	!LO:TX:t=P:problem:♭ above	!	!	!	!	!	!	!
4c\	.	4c\	8ee-X\	.	8c\L	-le-	4r	.	4r	.
!	!	!	!LO:TX:t=P:problem:kreska pseudotaktowa	!	!	!	!	!	!	!
.	.	.	8cc\J	.	8A,<\J	.	.	.	.	.
=187-	=187-	=187-	=187-	=187-	=187-	=187-	=187-	=187-	=187-	=187-
2B-\	.	2B-\	8dd\L	2.r	8B-\L	.	4r	.	2.r	.
.	.	.	8cc\	.	8A\	.	.	.	.	.
.	.	.	8dd\	.	8B-\	.	4f\	al-	.	.
!	!	!	!LO:TX:t=P:problem:♭ above	!	!	!	!	!	!	!
.	.	.	8ee-X\J	.	8c\J	.	.	.	.	.
!LO:TX:t=P:problem:kreska pseudotaktowa	!	!LO:TX:t=P:problem:kreska pseudotaktowa	!	!	!	!	!LO:TX:t=P:problem:kreska pseudotaktowa	!	!	!
4A\	.	4A\	8cc\L	.	8A\L	-lu-	4f\	-le-	.	.
!	!	!	!LO:TX:t=P:problem:kreska pseudotaktowa	!	!	!	!	!	!	!
.	.	.	8dd\J	.	8B-,<\J	.	.	.	.	.
=188-	=188-	=188-	=188-	=188-	=188-	=188-	=188-	=188-	=188-	=188-
2G\	.	2G\	8b-\L	4r	4G\	-ia	(4.g\	-lu-	4r	.
.	.	.	8cc\J	.	.	.	.	.	.	.
.	.	.	4dd\	8bb-\L	4G\	al-	.	.	4dd\	al-
.	.	.	.	8gg\	.	.	8f\	.	.	.
!	!	!	!LO:TX:t=P:problem:kreska pseudotaktowa	!	!	!	!	!	!	!
4A-X\	.	4A-X\	4r	8ccc\	4A-X\	-le-	4e-X\)	.	4cc,<\	-le-
!	!	!	!	!LO:TX:t=P:problem:kreska pseudotaktowa	!	!	!	!	!	!
!	!	!	!	!LO:TX:t=P:problem:♭ above	!	!	!	!	!	!
.	.	.	.	8aa-X\J	.	.	.	.	.	.
=189-	=189-	=189-	=189-	=189-	=189-	=189-	=189-	=189-	=189-	=189-
2G\	.	2G\	4r	8bb-\L	8G\L	-lu-	2g\	-ia	4dd\	-lu-
!	!	!	!	!LO:TX:t=P:problem:♭ above	!	!	!	!	!	!
.	.	.	.	8aa-X\	8F\	.	.	.	.	.
.	.	.	2b-/	8bb-\	8G\	.	.	.	(>4b-\	-ia
.	.	.	.	8ccc\	8A-X\J	.	.	.	.	.
!	!	!	!	!LO:TX:t=P:problem:♭ above	!	!	!LO:TX:t=P:problem:kreska pseudotaktowa	!	!	!
4F\	.	4F\	.	8aa-X\	4F\	-ia	4r	.	8cc\L	.
!	!	!	!	!LO:TX:t=P:problem:kreska pseudotaktowa	!	!	!	!	!	!
.	.	.	.	8bb-\J	.	.	.	.	8dd,<\J	.
=190-	=190-	=190-	=190-	=190-	=190-	=190-	=190-	=190-	=190-	=190-
4E-X\	.	4E-X\	4b-/	4gg\	4E-X\	al-	4g\	al-	2.ee-X\)	.
4D/	.	4D/	4.cc\	4.aa\	8D/L	-le-	8f\L	-le-	.	.
.	.	.	.	.	8E-/	.	8g\J	.	.	.
!LO:TX:t=P:problem:kreska pseudotaktowa	!	!LO:TX:t=P:problem:kreska pseudotaktowa	!	!	!	!	!	!	!	!
4C/	.	4C/	.	.	8C/	-lu-	8e-X\L	-lu-	.	.
.	.	.	8cc\	8aa\	8D/J	.	8f\J	.	.	.
=191-	=191-	=191-	=191-	=191-	=191-	=191-	=191-	=191-	=191-	=191-
4.BB-/	.	4.BB-/	2dd\	2bb-\	(4.BB-/	-ia	4.d\	-ia	4r	.
!	!	!	!	!	!	!	!	!	!LO:SIC:v:t=custos cc	!
.	.	.	.	.	.	.	.	.	2ff,<\	al-
8C/	.	8C/	.	.	8C/)	.	8e-\	.	.	.
!	!	!	!LO:TX:t=P:problem:kreska pseudotaktowa	!	!	!	!	!	!	!
4D/	.	4D/	4b-/	4bb-\	4D/	.	4f\	.	.	.
!	!	!	!	!	!	!	!	!	!LO:LB:g=original	!
=192-	=192-	=192-	=192-	=192-	=192-	=192-	=192-	=192-	=192-	=192-
4E-X\	.	4E-X\	4r	4bb-\	4E-X\	al-	4g\	al-	2cc\	-le-
!	!	!LO:TX:t=P:problem:kreska pseudotaktowa	!	!	!	!	!	!	!	!
2F\	4	2F\	[2ff\	4.bb-\	4.F\	-le-	4.f\	-le-	.	.
.	.	.	.	.	.	.	.	.	4cc,<\	-lu-
!	!	!	!	!	!LO:SIC:v:t=custos B-	!	!LO:TX:t=P:problem:kreska pseudotaktowa	!	!	!
.	3	.	.	8gg\	8F\	-lu-	8f\	-lu-	.	.
!	!	!	!	!	!LO:LB:g=original	!	!	!	!	!
=193-	=193-	=193-	=193-	=193-	=193-	=193-	=193-	=193-	=193-	=193-
2B-\	.	2B-\	4ff\]	2.bb-\	4B-\	-ia	4f\	-ia	4dd\	-ia
.	.	.	2b-/	.	4B-\	al-	8f\L	al-	8dd\L	al-
.	.	.	.	.	.	.	8d\J	.	8b-\J	.
!LO:TX:t=P:problem:kreska pseudotaktowa	!	!	!	!	!	!	!	!	!	!
4E-X\	.	4E-X\	.	.	4E-X\	-le-	8g\L	-le-	8ee-X\L	-le-
!	!	!	!	!	!	!	!LO:SIC:v:t=custos f	!	!	!
.	.	.	.	.	.	.	8e-X\J	.	8cc,<\J	.
!	!	!	!LO:LB:g=original	!	!	!	!LO:LB:g=original	!	!	!
=194-	=194-	=194-	=194-	=194-	=194-	=194-	=194-	=194-	=194-	=194-
4BB-/	.	4BB-/	4b-/	4bb-\	4BB-/	-lu-	8f\L	.	8dd\L	.
.	.	.	.	.	.	.	8g\	.	8ee-y\	.
!	!	!	!	!	!	!	!LO:TX:t=P:problem:♭ above	!	!	!
2E-X\	6	2E-X\	2g/	4r	2E-X\	-ia	8e-X\	.	8cc\	.
.	.	.	.	.	.	.	8f\J	.	8dd\J	.
!	!	!	!	!LO:SIC:v:t=custos ff	!	!	!	!	!	!
.	.	.	.	4r	.	.	8d\L	-lu-	8b-\L	-lu-
!	!	!	!	!	!	!	!LO:TX:t=P:problem:♭ above	!	!	!
.	.	.	.	.	.	.	8e-X\J	.	8cc,<\J	.
!	!	!	!	!LO:LB:g=original	!	!	!	!	!	!
=195-	=195-	=195-	=195-	=195-	=195-	=195-	=195-	=195-	=195-	=195-
4F\	.	4F\	4a/	4r	4F\	al-	4c/	-ia	4a\	-ia
*	*	*	*	*	*	*	*	*	*	*ij
2AA/	6	2AA/	2cc\	2ffny\	2AA/	-le-	2f\	al-	2a,<\	al-
=196-	=196-	=196-	=196-	=196-	=196-	=196-	=196-	=196-	=196-	=196-
2.C/	.	2.C/	2cc\	2gg\	2.C/	-lu-	2f\	-le-	2g/	-le-
.	.	.	4cc\	4gg\	.	.	4eny\	-lu-	4g,</	-lu-
=197-	=197-	=197-	=197-	=197-	=197-	=197-	=197-	=197-	=197-	=197-
4FF/	.	4FF/	4cc\	4ff\	4FF/	-ia	4f\	-ia	(4a\	-ia
4BB-/	.	4BB-/	4dd\	4ff\	4BB-/	al-	(4d\	al-	4b-\)	al-
4AA/	6	4AA/	4eeny\	4aa\	4AA/	-le-	4c\)	.	4cc\	-le-
=198-	=198-	=198-	=198-	=198-	=198-	=198-	=198-	=198-	=198-	=198-
2.BB-/	.	[2.BB-/	2.dd\	2.ff\	[2.BB-/	-lu-	2.d\	-le-	[2.b-\	-lu-
=199-	=199-	=199-	=199-	=199-	=199-	=199-	=199-	=199-	=199-	=199-
2.BB-/	.	2.BB-/]	2.dd\	2.ff\	2.BB-/]	.	2.d\	-lu-	2.b-\]	.
=200-	=200-	=200-	=200-	=200-	=200-	=200-	=200-	=200-	=200-	=200-
2.FF;l/	.	2.FF;l/	2.ffl;<\	2.aal\	2.FF;/l	-ia	2.c;\l	-ia	2.a;\l	-ia
==	==	==	==	==	==	==	==	==	==	==
*-	*-	*-	*-	*-	*-	*-	*-	*-	*-	*-
!!!system-decoration: [(g1)][(g2)][(g3)]
!!!AIN: 1 alto 1 bass 1 cello 1 soprn 2 violn
!!!ENC: Anastazja Marusiak
!!!END: 2022-01-24
!!!EED: Andrzej Borzym
!!!EST: 2022-02-18
!!!RDF**kern: > = above
!!!RDF**kern: < = below
!!!RDF**kern: l = terminal long
